gesad-science/Agentic_MAPE-K_SLM/src/data/caminho-obstaculo-conhecido.csv
episode,step,task,action_x,action_y,action_z,action_gripper,ee_x,ee_y,ee_z,ee_vx,ee_vy,ee_vz,gripper_width,gripper_state,cube_x,cube_y,cube_z,active_target_name,active_target_index,target_x,target_y,target_z,dist_ee_cube,dist_cube_target,reward,success,obstacle_in_path,obstacle_count,obstacle_1_type,obstacle_1_mass,obstacle_1_size_x,obstacle_1_size_y,obstacle_1_size_z,object_1_type,object_1_mass,object_1_size_x,object_1_size_y,object_1_size_z,table_x,table_y,table_z,table_offset_x,robot_control,robot_block_gripper,robot_base_x,robot_base_y,robot_base_z,scripts,joint_1,joint_2,joint_3,joint_4,joint_5,joint_6,joint_7,joint_vel_1,joint_vel_2,joint_vel_3,joint_vel_4,joint_vel_5,joint_vel_6,joint_vel_7,cube_roll,cube_pitch,cube_yaw,cube_vx,cube_vy,cube_vz,goal_mode,goal_n_targets,goal_0_name,goal_0_x,goal_0_y,goal_0_z,dist_goal_0,goal_1_name,goal_1_x,goal_1_y,goal_1_z,dist_goal_1,goal_2_name,goal_2_x,goal_2_y,goal_2_z,dist_goal_2,goal_3_name,goal_3_x,goal_3_y,goal_3_z,dist_goal_3,target_changed,timestep
1,1,PICK_AND_PLACE,-0.108,0.0,-0.994,1.0,0.04,0.0,0.171,-0.265,-0.001,-1.261,0.07,ABERTA,0.03,0.0,0.02,target,0,0.15,0.0,0.02,0.151,0.12,-0.12,False,True,1,box,0.0,0.02,0.3,0.1,box,1.0,0.04,0.04,0.04,1.1,0.7,0.4,-0.3,ee,False,-0.6,0.0,0.05,script_1|reach_only|left_right,-0.0,0.45,0.0,-1.88,-0.0,2.35,0.79,-0.0,1.91,0.0,-0.24,-0.01,0.69,-0.03,0.0,-0.0,-0.0,-0.0,0.0,-0.0,goal_sequence,4,target,0.15000000596046448,0.0,0.019999999552965164,0.12000000596046448,target_1,0.15000000596046448,0.10000000149011612,0.019999999552965164,0.15620499905103785,target_2,-0.10000000149011612,0.0,0.019999999552965164,0.13000000149011612,target_3,-0.10000000149011612,0.10000000149011612,0.019999999552965164,0.16401219675820886,True,0
1,2,PICK_AND_PLACE,-0.198,-0.0,-0.98,1.0,0.028,0.0,0.114,-0.377,0.0,-1.176,0.079,ABERTA,0.03,0.0,0.02,target,0,0.15,0.0,0.02,0.0944,0.12,-0.12,False,True,1,box,0.0,0.02,0.3,0.1,box,1.0,0.04,0.04,0.04,1.1,0.7,0.4,-0.3,ee,False,-0.6,0.0,0.05,script_1|reach_only|left_right,-0.0,0.53,0.0,-1.9,-0.0,2.41,0.79,-0.0,1.83,0.0,-0.17,-0.0,0.47,-0.0,0.0,-0.0,-0.0,-0.0,0.0,-0.0,goal_sequence,4,target,0.15000000596046448,0.0,0.019999999552965164,0.12000000596046448,target_1,0.15000000596046448,0.10000000149011612,0.019999999552965164,0.15620499905103785,target_2,-0.10000000149011612,0.0,0.019999999552965164,0.13000000149011612,target_3,-0.10000000149011612,0.10000000149011612,0.019999999552965164,0.16401219675820886,False,1
1,3,PICK_AND_PLACE,0.336,-0.0,0.942,1.0,0.014,0.0,0.08,-0.211,0.0,-0.558,0.08,ABERTA,0.03,0.0,0.02,target,0,0.15,0.0,0.02,0.062,0.12,-0.12,False,True,1,box,0.0,0.02,0.3,0.1,box,1.0,0.04,0.04,0.04,1.1,0.7,0.4,-0.3,ee,False,-0.6,0.0,0.05,script_1|reach_only|left_right,-0.0,0.6,0.0,-1.86,-0.0,2.34,0.79,-0.0,1.09,0.0,0.4,0.0,-0.55,-0.0,0.0,-0.0,-0.0,0.0,-0.0,0.0,goal_sequence,4,target,0.15000000596046448,0.0,0.019999999552965164,0.12000000596046448,target_1,0.15000000596046448,0.10000000149011612,0.019999999552965164,0.15620499905103785,target_2,-0.10000000149011612,0.0,0.019999999552965164,0.13000000149011612,target_3,-0.10000000149011612,0.10000000149011612,0.019999999552965164,0.16401219675820886,False,2
1,4,PICK_AND_PLACE,0.084,-0.0,-0.262,1.0,0.023,0.0,0.064,0.039,-0.002,-0.144,0.08,ABERTA,0.03,0.0,0.02,target,0,0.15,0.0,0.02,0.0448,0.12,-0.12,False,True,1,box,0.0,0.02,0.3,0.1,box,1.0,0.04,0.04,0.04,1.1,0.7,0.4,-0.3,ee,False,-0.6,0.0,0.05,script_1|reach_only|left_right,-0.0,0.62,0.0,-1.91,-0.0,2.5,0.79,0.0,0.17,-0.0,-0.38,-0.03,1.25,0.0,-0.0,-0.0,-0.0,0.0,-0.0,0.0,goal_sequence,4,target,0.15000000596046448,0.0,0.019999999552965164,0.12000000596046448,target_1,0.15000000596046448,0.10000000149011612,0.019999999552965164,0.15620499905103785,target_2,-0.10000000149011612,0.0,0.019999999552965164,0.13000000149011612,target_3,-0.10000000149011612,0.10000000149011612,0.019999999552965164,0.16401219675820886,False,3
1,5,PICK_AND_PLACE,0.026,-0.0,-0.119,1.0,0.025,0.0,0.059,0.014,-0.0,-0.04,0.08,ABERTA,0.03,0.0,0.02,target,0,0.15,0.0,0.02,0.0393,0.12,-0.12,False,True,1,box,0.0,0.02,0.3,0.1,box,1.0,0.04,0.04,0.04,1.1,0.7,0.4,-0.3,ee,False,-0.6,0.0,0.05,script_1|reach_only|left_right,-0.0,0.63,0.0,-1.91,-0.0,2.54,0.79,0.0,0.07,-0.0,-0.05,-0.0,0.27,-0.0,-0.0,-0.0,-0.0,0.0,0.0,0.0,goal_sequence,4,target,0.15000000596046448,0.0,0.019999999552965164,0.12000000596046448,target_1,0.15000000596046448,0.10000000149011612,0.019999999552965164,0.15620499905103785,target_2,-0.10000000149011612,0.0,0.019999999552965164,0.13000000149011612,target_3,-0.10000000149011612,0.10000000149011612,0.019999999552965164,0.16401219675820886,False,4
1,6,PICK_AND_PLACE,0.016,-0.0,-0.085,1.0,0.025,0.0,0.055,0.003,-0.0,-0.03,0.08,ABERTA,0.03,0.0,0.02,target,0,0.15,0.0,0.02,0.0357,0.12,-0.12,False,True,1,box,0.0,0.02,0.3,0.1,box,1.0,0.04,0.04,0.04,1.1,0.7,0.4,-0.3,ee,False,-0.6,0.0,0.05,script_1|reach_only|left_right,-0.0,0.63,0.0,-1.91,-0.0,2.55,0.79,0.0,0.07,-0.0,0.01,-0.0,0.07,0.0,-0.0,-0.0,-0.0,0.0,-0.0,0.0,goal_sequence,4,target,0.15000000596046448,0.0,0.019999999552965164,0.12000000596046448,target_1,0.15000000596046448,0.10000000149011612,0.019999999552965164,0.15620499905103785,target_2,-0.10000000149011612,0.0,0.019999999552965164,0.13000000149011612,target_3,-0.10000000149011612,0.10000000149011612,0.019999999552965164,0.16401219675820886,False,5
1,7,PICK_AND_PLACE,0.012,-0.0,-0.065,1.0,0.026,0.0,0.053,0.002,-0.0,-0.022,0.08,ABERTA,0.03,0.0,0.02,target,0,0.15,0.0,0.02,0.0329,0.12,-0.12,False,True,1,box,0.0,0.02,0.3,0.1,box,1.0,0.04,0.04,0.04,1.1,0.7,0.4,-0.3,ee,False,-0.6,0.0,0.05,script_1|reach_only|left_right,-0.0,0.64,0.0,-1.91,-0.0,2.55,0.79,-0.0,0.05,-0.0,0.02,-0.0,0.03,0.0,-0.0,-0.0,-0.0,0.0,-0.0,0.0,goal_sequence,4,target,0.15000000596046448,0.0,0.019999999552965164,0.12000000596046448,target_1,0.15000000596046448,0.10000000149011612,0.019999999552965164,0.15620499905103785,target_2,-0.10000000149011612,0.0,0.019999999552965164,0.13000000149011612,target_3,-0.10000000149011612,0.10000000149011612,0.019999999552965164,0.16401219675820886,False,6
1,8,PICK_AND_PLACE,0.012,-0.0,-0.059,1.0,0.026,0.0,0.05,0.002,-0.0,-0.02,0.08,ABERTA,0.03,0.0,0.02,target,0,0.15,0.0,0.02,0.0304,0.12,-0.12,False,True,1,box,0.0,0.02,0.3,0.1,box,1.0,0.04,0.04,0.04,1.1,0.7,0.4,-0.3,ee,False,-0.6,0.0,0.05,script_1|reach_only|left_right,-0.0,0.65,0.0,-1.91,-0.0,2.55,0.79,-0.0,0.05,-0.0,0.02,-0.0,0.03,0.0,-0.0,-0.0,-0.0,0.0,0.0,0.0,goal_sequence,4,target,0.15000000596046448,0.0,0.019999999552965164,0.12000000596046448,target_1,0.15000000596046448,0.10000000149011612,0.019999999552965164,0.15620499905103785,target_2,-0.10000000149011612,0.0,0.019999999552965164,0.13000000149011612,target_3,-0.10000000149011612,0.10000000149011612,0.019999999552965164,0.16401219675820886,False,7
1,9,PICK_AND_PLACE,0.012,-0.0,-0.059,1.0,0.026,0.0,0.048,0.002,-0.0,-0.02,0.08,ABERTA,0.03,0.0,0.02,target,0,0.15,0.0,0.02,0.0279,0.12,-0.12,False,True,1,box,0.0,0.02,0.3,0.1,box,1.0,0.04,0.04,0.04,1.1,0.7,0.4,-0.3,ee,False,-0.6,0.0,0.05,script_1|reach_only|left_right,-0.0,0.65,0.0,-1.9,-0.0,2.56,0.79,-0.0,0.05,-0.0,0.02,-0.0,0.03,0.0,-0.0,-0.0,-0.0,0.0,0.0,0.0,goal_sequence,4,target,0.15000000596046448,0.0,0.019999999552965164,0.12000000596046448,target_1,0.15000000596046448,0.10000000149011612,0.019999999552965164,0.15620499905103785,target_2,-0.10000000149011612,0.0,0.019999999552965164,0.13000000149011612,target_3,-0.10000000149011612,0.10000000149011612,0.019999999552965164,0.16401219675820886,False,8
1,10,PICK_AND_PLACE,0.013,-0.0,-0.059,1.0,0.026,0.0,0.045,0.002,-0.0,-0.02,0.08,ABERTA,0.03,0.0,0.02,target,0,0.15,0.0,0.02,0.0254,0.12,-0.12,False,True,1,box,0.0,0.02,0.3,0.1,box,1.0,0.04,0.04,0.04,1.1,0.7,0.4,-0.3,ee,False,-0.6,0.0,0.05,script_1|reach_only|left_right,-0.0,0.66,0.0,-1.9,-0.0,2.56,0.79,-0.0,0.05,-0.0,0.02,-0.0,0.02,0.0,-0.0,-0.0,-0.0,0.0,0.0,0.0,goal_sequence,4,target,0.15000000596046448,0.0,0.019999999552965164,0.12000000596046448,target_1,0.15000000596046448,0.10000000149011612,0.019999999552965164,0.15620499905103785,target_2,-0.10000000149011612,0.0,0.019999999552965164,0.13000000149011612,target_3,-0.10000000149011612,0.10000000149011612,0.019999999552965164,0.16401219675820886,False,9
1,11,PICK_AND_PLACE,0.014,0.0,-0.058,1.0,0.027,-0.0,0.043,0.002,-0.0,-0.02,0.08,ABERTA,0.03,0.0,0.02,target,0,0.15,0.0,0.02,0.023,0.12,-0.12,False,True,1,box,0.0,0.02,0.3,0.1,box,1.0,0.04,0.04,0.04,1.1,0.7,0.4,-0.3,ee,False,-0.6,0.0,0.05,script_1|reach_only|left_right,-0.0,0.66,0.0,-1.9,-0.0,2.56,0.79,-0.0,0.05,-0.0,0.02,-0.0,0.02,0.0,-0.0,0.0,-0.0,0.0,-0.0,0.0,goal_sequence,4,target,0.15000000596046448,0.0,0.019999999552965164,0.12000000596046448,target_1,0.15000000596046448,0.10000000149011612,0.019999999552965164,0.15620499905103785,target_2,-0.10000000149011612,0.0,0.019999999552965164,0.13000000149011612,target_3,-0.10000000149011612,0.10000000149011612,0.019999999552965164,0.16401219675820886,False,10
1,12,PICK_AND_PLACE,0.015,0.0,-0.058,1.0,0.027,-0.0,0.04,0.002,-0.0,-0.02,0.08,ABERTA,0.03,0.0,0.02,target,0,0.15,0.0,0.02,0.0205,0.12,-0.12,False,True,1,box,0.0,0.02,0.3,0.1,box,1.0,0.04,0.04,0.04,1.1,0.7,0.4,-0.3,ee,False,-0.6,0.0,0.05,script_1|reach_only|left_right,-0.0,0.67,0.0,-1.9,-0.0,2.57,0.79,-0.0,0.05,-0.0,0.02,-0.0,0.02,0.0,-0.0,0.0,-0.0,0.0,-0.0,-0.0,goal_sequence,4,target,0.15000000596046448,0.0,0.019999999552965164,0.12000000596046448,target_1,0.15000000596046448,0.10000000149011612,0.019999999552965164,0.15620499905103785,target_2,-0.10000000149011612,0.0,0.019999999552965164,0.13000000149011612,target_3,-0.10000000149011612,0.10000000149011612,0.019999999552965164,0.16401219675820886,False,11
1,13,PICK_AND_PLACE,0.016,0.0,-0.058,1.0,0.028,-0.0,0.038,0.003,-0.0,-0.02,0.08,ABERTA,0.03,0.0,0.02,target,0,0.15,0.0,0.02,0.0181,0.12,-0.12,False,True,1,box,0.0,0.02,0.3,0.1,box,1.0,0.04,0.04,0.04,1.1,0.7,0.4,-0.3,ee,False,-0.6,0.0,0.05,script_1|reach_only|left_right,-0.0,0.68,0.0,-1.89,-0.0,2.57,0.79,-0.0,0.05,-0.0,0.03,-0.0,0.02,0.0,-0.0,0.0,-0.0,0.0,-0.0,-0.0,goal_sequence,4,target,0.15000000596046448,0.0,0.019999999552965164,0.12000000596046448,target_1,0.15000000596046448,0.10000000149011612,0.019999999552965164,0.15620499905103785,target_2,-0.10000000149011612,0.0,0.019999999552965164,0.13000000149011612,target_3,-0.10000000149011612,0.10000000149011612,0.019999999552965164,0.16401219675820886,False,12
1,14,PICK_AND_PLACE,0.018,0.0,-0.057,1.0,0.028,-0.0,0.035,0.003,-0.0,-0.019,0.08,ABERTA,0.03,0.0,0.02,target,0,0.15,0.0,0.02,0.0156,0.12,-0.12,False,True,1,box,0.0,0.02,0.3,0.1,box,1.0,0.04,0.04,0.04,1.1,0.7,0.4,-0.3,ee,False,-0.6,0.0,0.05,script_1|reach_only|left_right,-0.0,0.68,0.0,-1.89,-0.0,2.57,0.79,0.0,0.05,-0.0,0.03,-0.0,0.02,0.0,-0.0,0.0,-0.0,0.0,-0.0,-0.0,goal_sequence,4,target,0.15000000596046448,0.0,0.019999999552965164,0.12000000596046448,target_1,0.15000000596046448,0.10000000149011612,0.019999999552965164,0.15620499905103785,target_2,-0.10000000149011612,0.0,0.019999999552965164,0.13000000149011612,target_3,-0.10000000149011612,0.10000000149011612,0.019999999552965164,0.16401219675820886,False,13
1,15,PICK_AND_PLACE,0.02,0.0,-0.057,1.0,0.029,-0.0,0.033,0.004,0.0,-0.019,0.08,ABERTA,0.03,0.0,0.02,target,0,0.15,0.0,0.02,0.0132,0.12,-0.12,False,True,1,box,0.0,0.02,0.3,0.1,box,1.0,0.04,0.04,0.04,1.1,0.7,0.4,-0.3,ee,False,-0.6,0.0,0.05,script_1|reach_only|left_right,-0.0,0.69,0.0,-1.89,-0.0,2.57,0.79,0.0,0.05,-0.0,0.03,-0.0,0.02,0.0,-0.0,0.0,-0.0,0.0,-0.0,-0.0,goal_sequence,4,target,0.15000000596046448,0.0,0.019999999552965164,0.12000000596046448,target_1,0.15000000596046448,0.10000000149011612,0.019999999552965164,0.15620499905103785,target_2,-0.10000000149011612,0.0,0.019999999552965164,0.13000000149011612,target_3,-0.10000000149011612,0.10000000149011612,0.019999999552965164,0.16401219675820886,False,14
1,16,PICK_AND_PLACE,0.025,0.0,-0.055,-1.0,0.029,-0.0,0.031,0.006,0.0,-0.01,0.036,AGARRADA,0.03,-0.0,0.02,target,0,0.15,0.0,0.02,0.0112,0.12,-0.12,False,True,1,box,0.0,0.02,0.3,0.1,box,1.0,0.04,0.04,0.04,1.1,0.7,0.4,-0.3,ee,False,-0.6,0.0,0.05,script_1|reach_only|left_right,-0.0,0.69,0.0,-1.88,-0.0,2.58,0.79,0.0,0.03,-0.0,0.03,0.0,0.0,0.01,-0.0,0.001,0.0,0.002,-0.005,-0.001,goal_sequence,4,target,0.15000000596046448,0.0,0.019999999552965164,0.12000000596046448,target_1,0.15000000596046448,0.10000000149011612,0.019999999552965164,0.15620499905103785,target_2,-0.10000000149011612,0.0,0.019999999552965164,0.13000000149011612,target_3,-0.10000000149011612,0.10000000149011612,0.019999999552965164,0.16401219675820886,False,15
1,17,PICK_AND_PLACE,-0.008,-0.0,1.0,-1.0,0.016,-0.0,0.039,0.051,-0.0,0.441,0.035,AGARRADA,0.017,0.004,0.029,target,0,0.15,0.0,0.02,0.0109,0.1338,-0.1338,False,True,1,box,0.0,0.02,0.3,0.1,box,1.0,0.04,0.04,0.04,1.1,0.7,0.4,-0.3,ee,False,-0.6,0.0,0.05,script_1|reach_only|left_right,-0.0,0.66,0.0,-1.9,-0.0,2.5,0.79,-0.0,-0.89,0.0,-0.18,0.0,-0.56,-0.0,-0.001,0.041,0.019,0.053,0.102,0.441,goal_sequence,4,target,0.15000000596046448,0.0,0.019999999552965164,0.13336416907674342,target_1,0.15000000596046448,0.10000000149011612,0.019999999552965164,0.1642741668054734,target_2,-0.10000000149011612,0.0,0.019999999552965164,0.11741379968612634,target_3,-0.10000000149011612,0.10000000149011612,0.019999999552965164,0.1516113473419325,False,16
1,18,PICK_AND_PLACE,0.135,-0.0,0.991,-1.0,0.018,-0.0,0.064,0.3,-0.001,0.861,0.035,AGARRADA,0.019,0.008,0.055,target,0,0.15,0.0,0.02,0.0124,0.1355,-0.1355,False,True,1,box,0.0,0.02,0.3,0.1,box,1.0,0.04,0.04,0.04,1.1,0.7,0.4,-0.3,ee,False,-0.6,0.0,0.05,script_1|reach_only|left_right,-0.0,0.61,0.0,-1.92,-0.0,2.49,0.79,-0.0,-1.51,-0.0,-0.18,0.0,-0.1,-0.0,-0.002,0.02,0.019,0.313,0.104,0.862,goal_sequence,4,target,0.15000000596046448,0.0,0.019999999552965164,0.13583078293573284,target_1,0.15000000596046448,0.10000000149011612,0.019999999552965164,0.16385970177903883,target_2,-0.10000000149011612,0.0,0.019999999552965164,0.12429803049903919,target_3,-0.10000000149011612,0.10000000149011612,0.019999999552965164,0.15443445425202706,False,17
1,19,PICK_AND_PLACE,0.154,0.0,0.988,-1.0,0.025,-0.0,0.102,0.193,-0.001,0.708,0.037,AGARRADA,0.026,0.012,0.093,target,0,0.15,0.0,0.02,0.0158,0.1442,-0.1442,False,True,1,box,0.0,0.02,0.3,0.1,box,1.0,0.04,0.04,0.04,1.1,0.7,0.4,-0.3,ee,False,-0.6,0.0,0.05,script_1|reach_only|left_right,-0.0,0.54,0.0,-1.92,-0.0,2.45,0.79,-0.0,-1.2,-0.0,-0.03,0.0,-0.32,-0.0,-0.003,-0.005,0.019,0.201,0.107,0.709,goal_sequence,4,target,0.15000000596046448,0.0,0.019999999552965164,0.14439183336831177,target_1,0.15000000596046448,0.10000000149011612,0.019999999552965164,0.16866831891532788,target_2,-0.10000000149011612,0.0,0.019999999552965164,0.14611297150074098,target_3,-0.10000000149011612,0.10000000149011612,0.019999999552965164,0.1701440586768659,False,18
1,20,PICK_AND_PLACE,0.13,0.001,0.992,-1.0,0.027,-0.0,0.137,0.179,-0.002,0.804,0.038,AGARRADA,0.029,0.017,0.128,target,0,0.15,0.0,0.02,0.0192,0.163,-0.163,False,True,1,box,0.0,0.02,0.3,0.1,box,1.0,0.04,0.04,0.04,1.1,0.7,0.4,-0.3,ee,False,-0.6,0.0,0.05,script_1|reach_only|left_right,-0.0,0.48,0.0,-1.91,-0.0,2.37,0.79,0.0,-1.29,-0.0,0.11,0.0,-0.56,-0.0,-0.003,-0.004,0.018,0.187,0.091,0.805,goal_sequence,4,target,0.15000000596046448,0.0,0.019999999552965164,0.16307667380404828,target_1,0.15000000596046448,0.10000000149011612,0.019999999552965164,0.182192211102317,target_2,-0.10000000149011612,0.0,0.019999999552965164,0.16909760637279728,target_3,-0.10000000149011612,0.10000000149011612,0.019999999552965164,0.18760064159903284,False,19
1,21,PICK_AND_PLACE,0.251,0.018,-0.968,-1.0,0.054,0.001,0.151,0.043,0.005,-0.44,0.038,AGARRADA,0.056,0.019,0.139,target,0,0.15,0.0,0.02,0.0218,0.1529,-0.1529,False,True,1,box,0.0,0.02,0.3,0.1,box,1.0,0.04,0.04,0.04,1.1,0.7,0.4,-0.3,ee,False,-0.6,0.0,0.05,script_1|reach_only|left_right,0.0,0.49,0.0,-1.88,-0.0,2.46,0.79,0.01,0.9,-0.0,0.19,-0.0,0.62,0.01,0.001,-0.079,0.008,0.041,0.019,-0.44,goal_sequence,4,target,0.15000000596046448,0.0,0.019999999552965164,0.1528332464713148,target_1,0.15000000596046448,0.10000000149011612,0.019999999552965164,0.17192440626147432,target_2,-0.10000000149011612,0.0,0.019999999552965164,0.19712432770033872,target_3,-0.10000000149011612,0.10000000149011612,0.019999999552965164,0.2122686995595661,False,20
1,22,PICK_AND_PLACE,0.978,-0.006,-0.209,-1.0,0.069,0.0,0.126,0.222,-0.001,-0.577,0.038,AGARRADA,0.071,0.016,0.114,target,0,0.15,0.0,0.02,0.0202,0.1245,-0.1245,False,True,1,box,0.0,0.02,0.3,0.1,box,1.0,0.04,0.04,0.04,1.1,0.7,0.4,-0.3,ee,False,-0.6,0.0,0.05,script_1|reach_only|left_right,0.0,0.61,0.0,-1.72,-0.0,2.32,0.79,-0.0,2.02,-0.0,2.06,0.02,-1.04,-0.01,0.001,-0.001,0.0,0.21,-0.06,-0.578,goal_sequence,4,target,0.15000000596046448,0.0,0.019999999552965164,0.12382649565337774,target_1,0.15000000596046448,0.10000000149011612,0.019999999552965164,0.1487716413707111,target_2,-0.10000000149011612,0.0,0.019999999552965164,0.19578815233221408,target_3,-0.10000000149011612,0.10000000149011612,0.019999999552965164,0.21244528906050558,False,21
1,23,PICK_AND_PLACE,0.999,-0.003,0.044,-1.0,0.093,0.0,0.118,0.295,-0.001,0.058,0.035,AGARRADA,0.092,0.015,0.11,target,0,0.15,0.0,0.02,0.0171,0.1083,-0.1083,False,True,1,box,0.0,0.02,0.3,0.1,box,1.0,0.04,0.04,0.04,1.1,0.7,0.4,-0.3,ee,False,-0.6,0.0,0.05,script_1|reach_only|left_right,-0.0,0.7,0.0,-1.6,-0.0,2.28,0.79,-0.0,0.64,0.0,1.25,0.0,-0.33,-0.0,0.003,0.008,0.007,0.297,-0.012,0.057,goal_sequence,4,target,0.15000000596046448,0.0,0.019999999552965164,0.10811568235866703,target_1,0.15000000596046448,0.10000000149011612,0.019999999552965164,0.13670772116160787,target_2,-0.10000000149011612,0.0,0.019999999552965164,0.21257704639182204,target_3,-0.10000000149011612,0.10000000149011612,0.019999999552965164,0.22844912104446932,False,22
1,24,PICK_AND_PLACE,0.977,-0.001,0.212,-1.0,0.116,-0.0,0.119,0.248,-0.001,0.071,0.035,AGARRADA,0.115,0.015,0.111,target,0,0.15,0.0,0.02,0.0166,0.0991,-0.0991,False,True,1,box,0.0,0.02,0.3,0.1,box,1.0,0.04,0.04,0.04,1.1,0.7,0.4,-0.3,ee,False,-0.6,0.0,0.05,script_1|reach_only|left_right,-0.0,0.76,0.0,-1.48,-0.0,2.23,0.79,-0.0,0.57,-0.0,1.17,0.0,-0.38,-0.0,0.003,0.004,0.007,0.249,-0.016,0.071,goal_sequence,4,target,0.15000000596046448,0.0,0.019999999552965164,0.0986458336605905,target_1,0.15000000596046448,0.10000000149011612,0.019999999552965164,0.12934836973040145,target_2,-0.10000000149011612,0.0,0.019999999552965164,0.23394657664114316,target_3,-0.10000000149011612,0.10000000149011612,0.019999999552965164,0.248457241744792,False,23
1,25,PICK_AND_PLACE,0.951,0.001,0.31,-1.0,0.135,-0.0,0.123,0.218,0.0,0.146,0.035,AGARRADA,0.133,0.014,0.115,target,0,0.15,0.0,0.02,0.016,0.0978,-0.0978,False,False,0,box,0.0,0.02,0.3,0.1,box,1.0,0.04,0.04,0.04,1.1,0.7,0.4,-0.3,ee,False,-0.6,0.0,0.05,script_1|reach_only|left_right,-0.0,0.82,0.0,-1.36,-0.0,2.17,0.79,0.0,0.41,-0.0,1.09,0.0,-0.44,-0.0,0.003,0.004,0.007,0.22,-0.017,0.146,goal_sequence,4,target,0.15000000596046448,0.0,0.019999999552965164,0.09751923034762143,target_1,0.15000000596046448,0.10000000149011612,0.019999999552965164,0.12926716730822418,target_2,-0.10000000149011612,0.0,0.019999999552965164,0.252011906026939,target_3,-0.10000000149011612,0.10000000149011612,0.019999999552965164,0.2659135217239445,False,24
1,26,PICK_AND_PLACE,0.904,0.002,0.429,-1.0,0.15,0.0,0.132,0.205,0.0,0.283,0.035,AGARRADA,0.149,0.013,0.124,target,0,0.15,0.0,0.02,0.0152,0.1053,-0.1053,False,False,0,box,0.0,0.02,0.3,0.1,box,1.0,0.04,0.04,0.04,1.1,0.7,0.4,-0.3,ee,False,-0.6,0.0,0.05,script_1|reach_only|left_right,-0.0,0.86,0.0,-1.26,-0.0,2.11,0.79,0.0,0.16,-0.0,0.97,-0.0,-0.45,0.0,0.003,0.002,0.007,0.207,-0.017,0.282,goal_sequence,4,target,0.15000000596046448,0.0,0.019999999552965164,0.10481412168646079,target_1,0.15000000596046448,0.10000000149011612,0.019999999552965164,0.13559498650091906,target_2,-0.10000000149011612,0.0,0.019999999552965164,0.27015921386297576,target_3,-0.10000000149011612,0.10000000149011612,0.019999999552965164,0.2835242513337109,False,25
1,27,PICK_AND_PLACE,-0.001,-0.0,-1.0,-1.0,0.16,-0.0,0.12,-0.178,-0.0,-0.987,0.037,AGARRADA,0.159,0.013,0.11,target,0,0.15,0.0,0.02,0.016,0.0913,-0.0913,False,False,0,box,0.0,0.02,0.3,0.1,box,1.0,0.04,0.04,0.04,1.1,0.7,0.4,-0.3,ee,False,-0.6,0.0,0.05,script_1|reach_only|left_right,-0.0,0.89,0.0,-1.26,-0.0,2.19,0.79,-0.0,1.35,0.0,-0.03,0.0,0.59,-0.0,0.003,-0.043,0.005,-0.183,-0.019,-0.986,goal_sequence,4,target,0.15000000596046448,0.0,0.019999999552965164,0.09137833426572158,target_1,0.15000000596046448,0.10000000149011612,0.019999999552965164,0.12549900490624677,target_2,-0.10000000149011612,0.0,0.019999999552965164,0.27449954617876227,target_3,-0.10000000149011612,0.10000000149011612,0.019999999552965164,0.2876629992050188,False,26
1,28,PICK_AND_PLACE,-0.093,0.0,-0.809,-1.0,0.148,-0.0,0.071,-0.373,0.0,-1.131,0.038,AGARRADA,0.146,0.012,0.062,target,0,0.15,0.0,0.02,0.0157,0.0434,-0.0434,False,False,0,box,0.0,0.02,0.3,0.1,box,1.0,0.04,0.04,0.04,1.1,0.7,0.4,-0.3,ee,False,-0.6,0.0,0.05,script_1|reach_only|left_right,-0.0,0.96,0.0,-1.26,-0.0,2.2,0.79,0.0,1.54,-0.0,0.03,0.0,0.09,0.0,0.003,0.009,0.004,-0.385,-0.018,-1.128,goal_sequence,4,target,0.15000000596046448,0.0,0.019999999552965164,0.043863425370514304,target_1,0.15000000596046448,0.10000000149011612,0.019999999552965164,0.09759098497041167,target_2,-0.10000000149011612,0.0,0.019999999552965164,0.24984795530619827,target_3,-0.10000000149011612,0.10000000149011612,0.019999999552965164,0.2646204849080065,False,27
1,29,PICK_AND_PLACE,0.007,0.0,-0.172,-1.0,0.137,-0.0,0.032,-0.309,0.0,-0.833,0.038,AGARRADA,0.135,0.011,0.023,target,0,0.15,0.0,0.02,0.0147,0.0191,-0.0191,False,False,0,box,0.0,0.02,0.3,0.1,box,1.0,0.04,0.04,0.04,1.1,0.7,0.4,-0.3,ee,False,-0.6,0.0,0.05,script_1|reach_only|left_right,-0.0,1.01,0.0,-1.26,-0.0,2.22,0.79,-0.0,1.14,0.0,-0.01,0.0,0.18,-0.0,0.003,0.041,0.004,-0.317,-0.018,-0.831,goal_sequence,4,target,0.15000000596046448,0.0,0.019999999552965164,0.01884144849782465,target_1,0.15000000596046448,0.10000000149011612,0.019999999552965164,0.09030504109260375,target_2,-0.10000000149011612,0.0,0.019999999552965164,0.23527643465302,target_3,-0.10000000149011612,0.10000000149011612,0.019999999552965164,0.25130658759427194,False,28
1,30,PICK_AND_PLACE,0.059,0.0,-0.01,-1.0,0.141,-0.0,0.023,0.109,-0.0,0.132,0.036,AGARRADA,0.137,0.011,0.021,target,0,0.15,0.0,0.02,0.012,0.0172,-0.0172,False,False,0,box,0.0,0.02,0.3,0.1,box,1.0,0.04,0.04,0.04,1.1,0.7,0.4,-0.3,ee,False,-0.6,0.0,0.05,script_1|reach_only|left_right,-0.0,1.02,0.0,-1.26,-0.0,2.27,0.79,0.0,-0.16,-0.0,-0.05,0.0,0.36,-0.0,0.002,-0.005,0.004,0.111,0.004,0.13,goal_sequence,4,target,0.15000000596046448,0.0,0.019999999552965164,0.017058726677750057,target_1,0.15000000596046448,0.10000000149011612,0.019999999552965164,0.089949988444173,target_2,-0.10000000149011612,0.0,0.019999999552965164,0.23725724584764343,target_3,-0.10000000149011612,0.10000000149011612,0.019999999552965164,0.2531620053887427,False,29
1,31,PICK_AND_PLACE,0.087,0.0,0.996,1.0,0.135,-0.0,0.034,0.132,0.0,0.516,0.075,ABERTA,0.141,0.011,0.02,target,0,0.15,0.0,0.02,0.0185,0.0147,-0.0147,False,False,0,box,0.0,0.02,0.3,0.1,box,1.0,0.04,0.04,0.04,1.1,0.7,0.4,-0.3,ee,False,-0.6,0.0,0.05,script_1|reach_only|left_right,-0.0,1.0,0.0,-1.27,-0.0,2.22,0.79,0.0,-0.77,0.0,-0.05,0.0,-0.36,-0.0,0.001,0.001,0.004,0.001,-0.001,-0.007,goal_sequence,4,target,0.15000000596046448,0.0,0.019999999552965164,0.014212674177944013,target_1,0.15000000596046448,0.10000000149011612,0.019999999552965164,0.0894539008234357,target_2,-0.10000000149011612,0.0,0.019999999552965164,0.24125090822261366,target_3,-0.10000000149011612,0.10000000149011612,0.019999999552965164,0.25690854595259505,False,30
1,32,PICK_AND_PLACE,0.152,0.0,0.988,1.0,0.141,-0.0,0.062,0.312,0.0,0.949,0.079,ABERTA,0.141,0.011,0.02,target,0,0.15,0.0,0.02,0.0433,0.0147,-0.0147,False,False,0,box,0.0,0.02,0.3,0.1,box,1.0,0.04,0.04,0.04,1.1,0.7,0.4,-0.3,ee,False,-0.6,0.0,0.05,script_1|reach_only|left_right,-0.0,0.95,0.0,-1.28,-0.0,2.21,0.79,0.0,-1.32,0.0,-0.05,0.0,-0.13,0.0,0.0,0.0,0.004,-0.0,0.0,-0.0,goal_sequence,4,target,0.15000000596046448,0.0,0.019999999552965164,0.014212674177944013,target_1,0.15000000596046448,0.10000000149011612,0.019999999552965164,0.0894539008234357,target_2,-0.10000000149011612,0.0,0.019999999552965164,0.24125090822261366,target_3,-0.10000000149011612,0.10000000149011612,0.019999999552965164,0.25690854595259505,False,31
1,33,PICK_AND_PLACE,0.125,0.0,0.992,1.0,0.148,-0.0,0.102,0.144,0.0,0.647,0.08,ABERTA,0.141,0.011,0.02,target,0,0.15,0.0,0.02,0.0827,0.0147,-0.0147,False,False,0,box,0.0,0.02,0.3,0.1,box,1.0,0.04,0.04,0.04,1.1,0.7,0.4,-0.3,ee,False,-0.6,0.0,0.05,script_1|reach_only|left_right,-0.0,0.9,0.0,-1.28,-0.0,2.17,0.79,0.0,-0.89,0.0,0.01,0.0,-0.31,0.0,0.0,-0.0,0.004,-0.0,0.0,-0.0,goal_sequence,4,target,0.15000000596046448,0.0,0.019999999552965164,0.014212674177944013,target_1,0.15000000596046448,0.10000000149011612,0.019999999552965164,0.0894539008234357,target_2,-0.10000000149011612,0.0,0.019999999552965164,0.24125090822261366,target_3,-0.10000000149011612,0.10000000149011612,0.019999999552965164,0.25690854595259505,False,32
1,34,PICK_AND_PLACE,0.08,0.0,0.997,1.0,0.148,0.0,0.134,0.162,0.001,0.891,0.08,ABERTA,0.141,0.011,0.02,target,0,0.15,0.0,0.02,0.1149,0.0147,-0.0147,False,False,0,box,0.0,0.02,0.3,0.1,box,1.0,0.04,0.04,0.04,1.1,0.7,0.4,-0.3,ee,False,-0.6,0.0,0.05,script_1|reach_only|left_right,-0.0,0.85,0.0,-1.27,-0.0,2.11,0.79,0.0,-1.2,0.0,0.07,0.0,-0.47,0.0,0.0,-0.0,0.004,-0.0,0.0,-0.0,goal_sequence,4,target,0.15000000596046448,0.0,0.019999999552965164,0.014212674177944013,target_1,0.15000000596046448,0.10000000149011612,0.019999999552965164,0.0894539008234357,target_2,-0.10000000149011612,0.0,0.019999999552965164,0.24125090822261366,target_3,-0.10000000149011612,0.10000000149011612,0.019999999552965164,0.25690854595259505,False,33
1,35,PICK_AND_PLACE,0.5,-0.0,-0.866,1.0,0.172,0.0,0.151,0.066,0.0,-0.443,0.08,ABERTA,0.141,0.011,0.02,target_1,1,0.15,0.1,0.02,0.1357,0.0892,-0.0892,False,False,0,box,0.0,0.02,0.3,0.1,box,1.0,0.04,0.04,0.04,1.1,0.7,0.4,-0.3,ee,False,-0.6,0.0,0.05,script_1|reach_only|left_right,-0.0,0.87,0.0,-1.22,-0.0,2.16,0.79,0.0,0.92,-0.0,0.47,-0.0,0.39,-0.0,0.0,-0.0,0.004,-0.0,0.0,-0.0,goal_sequence,4,target,0.15000000596046448,0.0,0.019999999552965164,0.014212674177944013,target_1,0.15000000596046448,0.10000000149011612,0.019999999552965164,0.0894539008234357,target_2,-0.10000000149011612,0.0,0.019999999552965164,0.24125090822261366,target_3,-0.10000000149011612,0.10000000149011612,0.019999999552965164,0.25690854595259505,True,34
1,36,PICK_AND_PLACE,-0.688,0.246,-0.683,1.0,0.151,0.01,0.118,-0.326,0.139,-0.644,0.08,ABERTA,0.141,0.011,0.02,target_1,1,0.15,0.1,0.02,0.0983,0.0892,-0.0892,False,False,0,box,0.0,0.02,0.3,0.1,box,1.0,0.04,0.04,0.04,1.1,0.7,0.4,-0.3,ee,False,-0.6,0.0,0.05,script_1|reach_only|left_right,0.01,0.88,0.0,-1.28,-0.0,2.16,0.8,0.18,0.48,0.01,-0.61,-0.01,-0.01,0.12,0.0,-0.0,0.004,-0.0,0.0,-0.0,goal_sequence,4,target,0.15000000596046448,0.0,0.019999999552965164,0.014212674177944013,target_1,0.15000000596046448,0.10000000149011612,0.019999999552965164,0.0894539008234357,target_2,-0.10000000149011612,0.0,0.019999999552965164,0.24125090822261366,target_3,-0.10000000149011612,0.10000000149011612,0.019999999552965164,0.25690854595259505,False,35
1,37,PICK_AND_PLACE,-0.963,0.159,0.215,1.0,0.121,0.017,0.093,-0.302,0.06,-0.228,0.08,ABERTA,0.141,0.011,0.02,target_1,1,0.15,0.1,0.02,0.0762,0.0892,-0.0892,False,False,0,box,0.0,0.02,0.3,0.1,box,1.0,0.04,0.04,0.04,1.1,0.7,0.4,-0.3,ee,False,-0.6,0.0,0.05,script_1|reach_only|left_right,0.02,0.84,0.0,-1.39,-0.0,2.18,0.81,0.08,-0.31,0.01,-1.09,-0.01,0.23,0.08,0.0,-0.0,0.004,-0.0,0.0,-0.0,goal_sequence,4,target,0.15000000596046448,0.0,0.019999999552965164,0.014212674177944013,target_1,0.15000000596046448,0.10000000149011612,0.019999999552965164,0.0894539008234357,target_2,-0.10000000149011612,0.0,0.019999999552965164,0.24125090822261366,target_3,-0.10000000149011612,0.10000000149011612,0.019999999552965164,0.25690854595259505,False,36
1,38,PICK_AND_PLACE,0.128,-0.036,-0.423,1.0,0.129,0.015,0.074,-0.076,-0.019,-0.531,0.08,ABERTA,0.141,0.011,0.02,target_1,1,0.15,0.1,0.02,0.0552,0.0892,-0.0892,False,False,0,box,0.0,0.02,0.3,0.1,box,1.0,0.04,0.04,0.04,1.1,0.7,0.4,-0.3,ee,False,-0.6,0.0,0.05,script_1|reach_only|left_right,0.02,0.88,0.0,-1.39,-0.0,2.26,0.81,-0.02,0.81,-0.0,0.01,-0.0,0.61,-0.02,0.0,-0.0,0.004,0.0,0.0,0.0,goal_sequence,4,target,0.15000000596046448,0.0,0.019999999552965164,0.014212674177944013,target_1,0.15000000596046448,0.10000000149011612,0.019999999552965164,0.0894539008234357,target_2,-0.10000000149011612,0.0,0.019999999552965164,0.24125090822261366,target_3,-0.10000000149011612,0.10000000149011612,0.019999999552965164,0.25690854595259505,False,37
1,39,PICK_AND_PLACE,0.055,-0.018,-0.199,1.0,0.129,0.014,0.061,-0.002,-0.006,-0.105,0.08,ABERTA,0.141,0.011,0.02,target_1,1,0.15,0.1,0.02,0.0428,0.0892,-0.0892,False,False,0,box,0.0,0.02,0.3,0.1,box,1.0,0.04,0.04,0.04,1.1,0.7,0.4,-0.3,ee,False,-0.6,0.0,0.05,script_1|reach_only|left_right,0.02,0.9,0.0,-1.39,-0.0,2.28,0.81,-0.01,0.19,-0.0,0.04,0.0,0.15,-0.01,0.0,-0.0,0.004,0.0,0.0,0.0,goal_sequence,4,target,0.15000000596046448,0.0,0.019999999552965164,0.014212674177944013,target_1,0.15000000596046448,0.10000000149011612,0.019999999552965164,0.0894539008234357,target_2,-0.10000000149011612,0.0,0.019999999552965164,0.24125090822261366,target_3,-0.10000000149011612,0.10000000149011612,0.019999999552965164,0.25690854595259505,False,38
1,40,PICK_AND_PLACE,0.039,-0.011,-0.104,1.0,0.13,0.014,0.057,0.01,-0.004,-0.035,0.08,ABERTA,0.141,0.011,0.02,target_1,1,0.15,0.1,0.02,0.0382,0.0892,-0.0892,False,False,0,box,0.0,0.02,0.3,0.1,box,1.0,0.04,0.04,0.04,1.1,0.7,0.4,-0.3,ee,False,-0.6,0.0,0.05,script_1|reach_only|left_right,0.02,0.91,0.0,-1.38,-0.0,2.29,0.81,-0.0,0.07,-0.0,0.03,0.0,0.09,-0.01,-0.0,-0.0,0.004,0.0,0.0,0.0,goal_sequence,4,target,0.15000000596046448,0.0,0.019999999552965164,0.014212674177944013,target_1,0.15000000596046448,0.10000000149011612,0.019999999552965164,0.0894539008234357,target_2,-0.10000000149011612,0.0,0.019999999552965164,0.24125090822261366,target_3,-0.10000000149011612,0.10000000149011612,0.019999999552965164,0.25690854595259505,False,39
1,41,PICK_AND_PLACE,0.03,-0.008,-0.077,1.0,0.131,0.014,0.053,0.003,-0.003,-0.026,0.08,ABERTA,0.141,0.011,0.02,target_1,1,0.15,0.1,0.02,0.035,0.0892,-0.0892,False,False,0,box,0.0,0.02,0.3,0.1,box,1.0,0.04,0.04,0.04,1.1,0.7,0.4,-0.3,ee,False,-0.6,0.0,0.05,script_1|reach_only|left_right,0.02,0.92,0.0,-1.38,-0.0,2.3,0.81,-0.0,0.06,-0.0,0.03,0.0,0.03,-0.0,-0.0,-0.0,0.004,0.0,0.0,0.0,goal_sequence,4,target,0.15000000596046448,0.0,0.019999999552965164,0.014212674177944013,target_1,0.15000000596046448,0.10000000149011612,0.019999999552965164,0.0894539008234357,target_2,-0.10000000149011612,0.0,0.019999999552965164,0.24125090822261366,target_3,-0.10000000149011612,0.10000000149011612,0.019999999552965164,0.25690854595259505,False,40
1,42,PICK_AND_PLACE,0.025,-0.006,-0.06,1.0,0.131,0.013,0.051,0.002,-0.002,-0.02,0.08,ABERTA,0.141,0.011,0.02,target_1,1,0.15,0.1,0.02,0.0324,0.0892,-0.0892,False,False,0,box,0.0,0.02,0.3,0.1,box,1.0,0.04,0.04,0.04,1.1,0.7,0.4,-0.3,ee,False,-0.6,0.0,0.05,script_1|reach_only|left_right,0.02,0.92,0.0,-1.38,-0.0,2.3,0.81,-0.0,0.05,-0.0,0.03,0.0,0.02,-0.0,-0.0,-0.0,0.004,0.0,0.0,0.0,goal_sequence,4,target,0.15000000596046448,0.0,0.019999999552965164,0.014212674177944013,target_1,0.15000000596046448,0.10000000149011612,0.019999999552965164,0.0894539008234357,target_2,-0.10000000149011612,0.0,0.019999999552965164,0.24125090822261366,target_3,-0.10000000149011612,0.10000000149011612,0.019999999552965164,0.25690854595259505,False,41
1,43,PICK_AND_PLACE,0.024,-0.005,-0.055,1.0,0.132,0.013,0.049,0.002,-0.002,-0.018,0.08,ABERTA,0.141,0.011,0.02,target_1,1,0.15,0.1,0.02,0.0302,0.0892,-0.0892,False,False,0,box,0.0,0.02,0.3,0.1,box,1.0,0.04,0.04,0.04,1.1,0.7,0.4,-0.3,ee,False,-0.6,0.0,0.05,script_1|reach_only|left_right,0.02,0.93,0.0,-1.37,-0.0,2.3,0.8,-0.0,0.04,-0.0,0.03,0.0,0.01,-0.0,0.0,-0.0,0.004,0.0,0.0,0.0,goal_sequence,4,target,0.15000000596046448,0.0,0.019999999552965164,0.014212674177944013,target_1,0.15000000596046448,0.10000000149011612,0.019999999552965164,0.0894539008234357,target_2,-0.10000000149011612,0.0,0.019999999552965164,0.24125090822261366,target_3,-0.10000000149011612,0.10000000149011612,0.019999999552965164,0.25690854595259505,False,42
1,44,PICK_AND_PLACE,0.026,-0.005,-0.054,1.0,0.132,0.013,0.046,0.003,-0.002,-0.018,0.08,ABERTA,0.141,0.011,0.02,target_1,1,0.15,0.1,0.02,0.0279,0.0892,-0.0892,False,False,0,box,0.0,0.02,0.3,0.1,box,1.0,0.04,0.04,0.04,1.1,0.7,0.4,-0.3,ee,False,-0.6,0.0,0.05,script_1|reach_only|left_right,0.02,0.94,0.0,-1.37,-0.0,2.3,0.8,-0.0,0.04,-0.0,0.03,0.0,0.01,-0.0,0.0,-0.0,0.004,0.0,0.0,0.0,goal_sequence,4,target,0.15000000596046448,0.0,0.019999999552965164,0.014212674177944013,target_1,0.15000000596046448,0.10000000149011612,0.019999999552965164,0.0894539008234357,target_2,-0.10000000149011612,0.0,0.019999999552965164,0.24125090822261366,target_3,-0.10000000149011612,0.10000000149011612,0.019999999552965164,0.25690854595259505,False,43
1,45,PICK_AND_PLACE,0.028,-0.005,-0.053,1.0,0.132,0.013,0.044,0.003,-0.002,-0.018,0.08,ABERTA,0.141,0.011,0.02,target_1,1,0.15,0.1,0.02,0.0257,0.0892,-0.0892,False,False,0,box,0.0,0.02,0.3,0.1,box,1.0,0.04,0.04,0.04,1.1,0.7,0.4,-0.3,ee,False,-0.6,0.0,0.05,script_1|reach_only|left_right,0.02,0.94,0.0,-1.36,-0.0,2.31,0.8,-0.0,0.04,-0.0,0.03,0.0,0.01,-0.0,0.0,-0.0,0.004,0.0,0.0,0.0,goal_sequence,4,target,0.15000000596046448,0.0,0.019999999552965164,0.014212674177944013,target_1,0.15000000596046448,0.10000000149011612,0.019999999552965164,0.0894539008234357,target_2,-0.10000000149011612,0.0,0.019999999552965164,0.24125090822261366,target_3,-0.10000000149011612,0.10000000149011612,0.019999999552965164,0.25690854595259505,False,44
1,46,PICK_AND_PLACE,0.03,-0.005,-0.052,1.0,0.133,0.012,0.042,0.003,-0.002,-0.017,0.08,ABERTA,0.141,0.011,0.02,target_1,1,0.15,0.1,0.02,0.0236,0.0892,-0.0892,False,False,0,box,0.0,0.02,0.3,0.1,box,1.0,0.04,0.04,0.04,1.1,0.7,0.4,-0.3,ee,False,-0.6,0.0,0.05,script_1|reach_only|left_right,0.02,0.95,0.0,-1.36,-0.0,2.31,0.8,-0.0,0.04,-0.0,0.03,0.0,0.01,-0.0,0.0,-0.0,0.004,0.0,0.0,0.0,goal_sequence,4,target,0.15000000596046448,0.0,0.019999999552965164,0.014212674177944013,target_1,0.15000000596046448,0.10000000149011612,0.019999999552965164,0.0894539008234357,target_2,-0.10000000149011612,0.0,0.019999999552965164,0.24125090822261366,target_3,-0.10000000149011612,0.10000000149011612,0.019999999552965164,0.25690854595259505,False,45
1,47,PICK_AND_PLACE,0.032,-0.005,-0.05,1.0,0.133,0.012,0.04,0.003,-0.002,-0.017,0.08,ABERTA,0.141,0.011,0.02,target_1,1,0.15,0.1,0.02,0.0215,0.0892,-0.0892,False,False,0,box,0.0,0.02,0.3,0.1,box,1.0,0.04,0.04,0.04,1.1,0.7,0.4,-0.3,ee,False,-0.6,0.0,0.05,script_1|reach_only|left_right,0.01,0.95,0.0,-1.35,-0.0,2.31,0.8,-0.0,0.05,-0.0,0.04,0.0,0.01,-0.0,0.0,-0.0,0.004,0.0,0.0,0.0,goal_sequence,4,target,0.15000000596046448,0.0,0.019999999552965164,0.014212674177944013,target_1,0.15000000596046448,0.10000000149011612,0.019999999552965164,0.0894539008234357,target_2,-0.10000000149011612,0.0,0.019999999552965164,0.24125090822261366,target_3,-0.10000000149011612,0.10000000149011612,0.019999999552965164,0.25690854595259505,False,46
1,48,PICK_AND_PLACE,0.035,-0.004,-0.049,1.0,0.134,0.012,0.038,0.004,-0.002,-0.016,0.08,ABERTA,0.141,0.011,0.02,target_1,1,0.15,0.1,0.02,0.0194,0.0892,-0.0892,False,False,0,box,0.0,0.02,0.3,0.1,box,1.0,0.04,0.04,0.04,1.1,0.7,0.4,-0.3,ee,False,-0.6,0.0,0.05,script_1|reach_only|left_right,0.01,0.96,0.0,-1.35,-0.0,2.31,0.8,-0.0,0.05,-0.0,0.04,0.0,0.0,-0.0,0.0,-0.0,0.004,0.0,0.0,0.0,goal_sequence,4,target,0.15000000596046448,0.0,0.019999999552965164,0.014212674177944013,target_1,0.15000000596046448,0.10000000149011612,0.019999999552965164,0.0894539008234357,target_2,-0.10000000149011612,0.0,0.019999999552965164,0.24125090822261366,target_3,-0.10000000149011612,0.10000000149011612,0.019999999552965164,0.25690854595259505,False,47
1,49,PICK_AND_PLACE,0.038,-0.004,-0.046,1.0,0.134,0.012,0.036,0.004,-0.001,-0.015,0.08,ABERTA,0.141,0.011,0.02,target_1,1,0.15,0.1,0.02,0.0175,0.0892,-0.0892,False,False,0,box,0.0,0.02,0.3,0.1,box,1.0,0.04,0.04,0.04,1.1,0.7,0.4,-0.3,ee,False,-0.6,0.0,0.05,script_1|reach_only|left_right,0.01,0.96,0.0,-1.34,-0.0,2.31,0.8,-0.0,0.05,-0.0,0.04,0.0,0.0,-0.0,0.0,-0.0,0.004,0.0,0.0,0.0,goal_sequence,4,target,0.15000000596046448,0.0,0.019999999552965164,0.014212674177944013,target_1,0.15000000596046448,0.10000000149011612,0.019999999552965164,0.0894539008234357,target_2,-0.10000000149011612,0.0,0.019999999552965164,0.24125090822261366,target_3,-0.10000000149011612,0.10000000149011612,0.019999999552965164,0.25690854595259505,False,48
1,50,PICK_AND_PLACE,0.042,-0.003,-0.043,1.0,0.135,0.012,0.035,0.005,-0.001,-0.014,0.08,ABERTA,0.141,0.011,0.02,target_1,1,0.15,0.1,0.02,0.0156,0.0892,-0.0892,False,False,0,box,0.0,0.02,0.3,0.1,box,1.0,0.04,0.04,0.04,1.1,0.7,0.4,-0.3,ee,False,-0.6,0.0,0.05,script_1|reach_only|left_right,0.01,0.97,0.0,-1.34,-0.0,2.31,0.8,-0.0,0.04,-0.0,0.05,0.0,-0.0,-0.0,0.0,-0.0,0.004,0.0,0.0,0.0,goal_sequence,4,target,0.15000000596046448,0.0,0.019999999552965164,0.014212674177944013,target_1,0.15000000596046448,0.10000000149011612,0.019999999552965164,0.0894539008234357,target_2,-0.10000000149011612,0.0,0.019999999552965164,0.24125090822261366,target_3,-0.10000000149011612,0.10000000149011612,0.019999999552965164,0.25690854595259505,False,49
1,51,PICK_AND_PLACE,0.046,-0.003,-0.039,-1.0,0.136,0.012,0.033,0.007,-0.001,-0.006,0.036,AGARRADA,0.141,0.011,0.02,target_1,1,0.15,0.1,0.02,0.0142,0.0892,-0.0892,False,False,0,box,0.0,0.02,0.3,0.1,box,1.0,0.04,0.04,0.04,1.1,0.7,0.4,-0.3,ee,False,-0.6,0.0,0.05,script_1|reach_only|left_right,0.01,0.98,0.0,-1.33,-0.0,2.31,0.8,-0.0,0.03,0.0,0.05,0.0,-0.01,-0.01,-0.001,0.002,0.004,0.001,0.002,-0.002,goal_sequence,4,target,0.15000000596046448,0.0,0.019999999552965164,0.014212674177944013,target_1,0.15000000596046448,0.10000000149011612,0.019999999552965164,0.0894539008234357,target_2,-0.10000000149011612,0.0,0.019999999552965164,0.24125090822261366,target_3,-0.10000000149011612,0.10000000149011612,0.019999999552965164,0.25690854595259505,False,50
1,52,PICK_AND_PLACE,-0.008,0.001,1.0,-1.0,0.126,0.011,0.042,0.051,0.001,0.421,0.037,AGARRADA,0.131,0.012,0.03,target_1,1,0.15,0.1,0.02,0.0133,0.0906,-0.0906,False,False,0,box,0.0,0.02,0.3,0.1,box,1.0,0.04,0.04,0.04,1.1,0.7,0.4,-0.3,ee,False,-0.6,0.0,0.05,script_1|reach_only|left_right,0.01,0.95,0.0,-1.34,-0.0,2.24,0.8,0.0,-0.7,0.0,-0.11,0.0,-0.48,0.0,0.005,-0.006,0.008,0.053,0.021,0.421,goal_sequence,4,target,0.15000000596046448,0.0,0.019999999552965164,0.024596752538462923,target_1,0.15000000596046448,0.10000000149011612,0.019999999552965164,0.09058145780290149,target_2,-0.10000000149011612,0.0,0.019999999552965164,0.23152753766533765,target_3,-0.10000000149011612,0.10000000149011612,0.019999999552965164,0.2473964449211726,False,51
1,53,PICK_AND_PLACE,0.101,0.002,0.995,-1.0,0.128,0.012,0.064,0.221,0.003,0.722,0.038,AGARRADA,0.134,0.013,0.053,target_1,1,0.15,0.1,0.02,0.013,0.0946,-0.0946,False,False,0,box,0.0,0.02,0.3,0.1,box,1.0,0.04,0.04,0.04,1.1,0.7,0.4,-0.3,ee,False,-0.6,0.0,0.05,script_1|reach_only|left_right,0.01,0.91,0.0,-1.36,-0.0,2.23,0.8,0.0,-1.06,0.0,-0.1,0.0,-0.11,0.0,0.004,-0.019,0.008,0.231,0.022,0.727,goal_sequence,4,target,0.15000000596046448,0.0,0.019999999552965164,0.0389101557467867,target_1,0.15000000596046448,0.10000000149011612,0.019999999552965164,0.09441398455482856,target_2,-0.10000000149011612,0.0,0.019999999552965164,0.2366727714099758,target_3,-0.10000000149011612,0.10000000149011612,0.019999999552965164,0.2518213672152521,False,52
1,54,PICK_AND_PLACE,0.098,0.002,0.995,-1.0,0.133,0.012,0.098,0.222,0.004,0.859,0.039,AGARRADA,0.139,0.014,0.087,target_1,1,0.15,0.1,0.02,0.0129,0.1099,-0.1099,False,False,0,box,0.0,0.02,0.3,0.1,box,1.0,0.04,0.04,0.04,1.1,0.7,0.4,-0.3,ee,False,-0.6,0.0,0.05,script_1|reach_only|left_right,0.01,0.85,0.0,-1.36,-0.0,2.2,0.8,-0.0,-1.22,0.0,-0.04,0.0,-0.23,0.0,0.003,-0.04,0.009,0.234,0.023,0.865,goal_sequence,4,target,0.15000000596046448,0.0,0.019999999552965164,0.06932532142754853,target_1,0.15000000596046448,0.10000000149011612,0.019999999552965164,0.10957189624777375,target_2,-0.10000000149011612,0.0,0.019999999552965164,0.24860812692303158,target_3,-0.10000000149011612,0.10000000149011612,0.019999999552965164,0.2626899332454104,False,53
1,55,PICK_AND_PLACE,0.059,0.001,0.998,-1.0,0.135,0.012,0.136,0.139,0.002,0.779,0.039,AGARRADA,0.142,0.015,0.125,target_1,1,0.15,0.1,0.02,0.0131,0.1355,-0.1355,False,False,0,box,0.0,0.02,0.3,0.1,box,1.0,0.04,0.04,0.04,1.1,0.7,0.4,-0.3,ee,False,-0.6,0.0,0.05,script_1|reach_only|left_right,0.01,0.8,0.0,-1.36,-0.0,2.15,0.8,-0.0,-1.09,0.0,0.02,0.0,-0.39,-0.0,0.003,-0.05,0.01,0.148,0.022,0.784,goal_sequence,4,target,0.15000000596046448,0.0,0.019999999552965164,0.10636728909417961,target_1,0.15000000596046448,0.10000000149011612,0.019999999552965164,0.13532922981589943,target_2,-0.10000000149011612,0.0,0.019999999552965164,0.2642233918772021,target_3,-0.10000000149011612,0.10000000149011612,0.019999999552965164,0.2771533890617491,False,54
1,56,PICK_AND_PLACE,-0.044,-0.002,-0.999,-1.0,0.15,0.012,0.146,-0.012,-0.001,-0.43,0.04,AGARRADA,0.157,0.015,0.133,target_1,1,0.15,0.1,0.02,0.0151,0.1413,-0.1413,False,False,0,box,0.0,0.02,0.3,0.1,box,1.0,0.04,0.04,0.04,1.1,0.7,0.4,-0.3,ee,False,-0.6,0.0,0.05,script_1|reach_only|left_right,0.01,0.79,0.0,-1.37,-0.0,2.23,0.8,0.0,0.61,-0.0,-0.08,-0.0,0.63,0.0,0.004,-0.106,0.002,-0.013,0.022,-0.431,goal_sequence,4,target,0.15000000596046448,0.0,0.019999999552965164,0.11420595438760366,target_1,0.15000000596046448,0.10000000149011612,0.019999999552965164,0.1415733035247223,target_2,-0.10000000149011612,0.0,0.019999999552965164,0.28114587115401424,target_3,-0.10000000149011612,0.10000000149011612,0.019999999552965164,0.29333087311135414,False,55
1,57,PICK_AND_PLACE,-0.004,0.983,-0.181,-1.0,0.141,0.031,0.134,-0.122,0.897,-0.142,0.04,AGARRADA,0.146,0.02,0.121,target_1,1,0.15,0.1,0.02,0.0182,0.1291,-0.1291,False,False,0,box,0.0,0.02,0.3,0.1,box,1.0,0.04,0.04,0.04,1.1,0.7,0.4,-0.3,ee,False,-0.6,0.0,0.05,script_1|reach_only|left_right,0.04,0.82,0.01,-1.34,-0.01,2.16,0.86,1.18,0.28,0.05,0.24,-0.04,-0.54,0.46,0.003,-0.042,-0.025,-0.131,0.513,-0.145,goal_sequence,4,target,0.15000000596046448,0.0,0.019999999552965164,0.10303882830265873,target_1,0.15000000596046448,0.10000000149011612,0.019999999552965164,0.12890694463993538,target_2,-0.10000000149011612,0.0,0.019999999552965164,0.2666777096486284,target_3,-0.10000000149011612,0.10000000149011612,0.019999999552965164,0.2776994797651892,False,56
1,58,PICK_AND_PLACE,0.124,0.991,-0.058,-1.0,0.141,0.074,0.131,-0.049,0.759,-0.016,0.04,AGARRADA,0.147,0.06,0.119,target_1,1,0.15,0.1,0.02,0.0195,0.1063,-0.1063,False,False,0,box,0.0,0.02,0.3,0.1,box,1.0,0.04,0.04,0.04,1.1,0.7,0.4,-0.3,ee,False,-0.6,0.0,0.05,script_1|reach_only|left_right,0.09,0.84,0.02,-1.31,-0.02,2.15,0.9,0.96,0.14,0.08,0.21,-0.07,-0.09,0.27,0.003,-0.038,-0.001,-0.037,1.134,-0.016,goal_sequence,4,target,0.15000000596046448,0.0,0.019999999552965164,0.11580155493030186,target_1,0.15000000596046448,0.10000000149011612,0.019999999552965164,0.10681760268553593,target_2,-0.10000000149011612,0.0,0.019999999552965164,0.2727819657246979,target_3,-0.10000000149011612,0.10000000149011612,0.019999999552965164,0.26909106440727376,False,57
1,59,PICK_AND_PLACE,0.313,0.948,-0.051,-1.0,0.144,0.114,0.129,-0.04,0.702,-0.003,0.04,AGARRADA,0.149,0.106,0.116,target_1,1,0.15,0.1,0.02,0.0165,0.0963,-0.0963,False,False,0,box,0.0,0.02,0.3,0.1,box,1.0,0.04,0.04,0.04,1.1,0.7,0.4,-0.3,ee,False,-0.6,0.0,0.05,script_1|reach_only|left_right,0.14,0.87,0.03,-1.26,-0.02,2.13,0.95,0.91,0.25,0.04,0.43,-0.04,-0.15,0.39,0.003,-0.038,0.003,-0.034,1.132,-0.002,goal_sequence,4,target,0.15000000596046448,0.0,0.019999999552965164,0.14301398567186235,target_1,0.15000000596046448,0.10000000149011612,0.019999999552965164,0.09619251571650606,target_2,-0.10000000149011612,0.0,0.019999999552965164,0.2871463056142435,target_3,-0.10000000149011612,0.10000000149011612,0.019999999552965164,0.2669325772737886,False,58
1,60,PICK_AND_PLACE,0.393,-0.917,0.072,-1.0,0.146,0.125,0.131,0.054,-0.078,0.047,0.04,AGARRADA,0.151,0.14,0.119,target_1,1,0.15,0.1,0.02,0.02,0.1066,-0.1066,False,False,0,box,0.0,0.02,0.3,0.1,box,1.0,0.04,0.04,0.04,1.1,0.7,0.4,-0.3,ee,False,-0.6,0.0,0.05,script_1|reach_only|left_right,0.15,0.88,0.02,-1.22,-0.02,2.11,0.89,-0.08,0.08,-0.05,0.27,0.05,-0.15,-0.45,0.003,-0.038,0.067,0.027,0.246,0.047,goal_sequence,4,target,0.15000000596046448,0.0,0.019999999552965164,0.1714701142374146,target_1,0.15000000596046448,0.10000000149011612,0.019999999552965164,0.1067801477681255,target_2,-0.10000000149011612,0.0,0.019999999552965164,0.3039769741880973,target_3,-0.10000000149011612,0.10000000149011612,0.019999999552965164,0.2727673014078885,False,59
1,61,PICK_AND_PLACE,0.033,-0.243,-0.969,-1.0,0.154,0.117,0.111,-0.233,-0.162,-1.174,0.04,AGARRADA,0.159,0.134,0.097,target_1,1,0.15,0.1,0.02,0.0236,0.0843,-0.0843,False,False,0,box,0.0,0.02,0.3,0.1,box,1.0,0.04,0.04,0.04,1.1,0.7,0.4,-0.3,ee,False,-0.6,0.0,0.05,script_1|reach_only|left_right,0.15,0.92,0.01,-1.22,-0.01,2.17,0.93,-0.1,1.6,-0.1,0.0,0.08,0.48,0.32,0.007,-0.062,0.009,-0.236,-0.263,-1.183,goal_sequence,4,target,0.15000000596046448,0.0,0.019999999552965164,0.15480956030412024,target_1,0.15000000596046448,0.10000000149011612,0.019999999552965164,0.08465222891470223,target_2,-0.10000000149011612,0.0,0.019999999552965164,0.3016057042576011,target_3,-0.10000000149011612,0.10000000149011612,0.019999999552965164,0.2723343546807777,False,60
1,62,PICK_AND_PLACE,-0.032,-0.138,-0.677,-1.0,0.143,0.109,0.063,-0.352,-0.096,-1.082,0.04,AGARRADA,0.147,0.124,0.048,target_1,1,0.15,0.1,0.02,0.0214,0.0367,-0.0367,False,False,0,box,0.0,0.02,0.3,0.1,box,1.0,0.04,0.04,0.04,1.1,0.7,0.4,-0.3,ee,False,-0.6,0.0,0.05,script_1|reach_only|left_right,0.14,0.99,0.0,-1.22,-0.0,2.19,0.93,-0.05,1.48,-0.02,0.04,0.02,0.1,-0.0,-0.0,-0.013,0.002,-0.369,-0.262,-1.09,goal_sequence,4,target,0.15000000596046448,0.0,0.019999999552965164,0.1271573830369152,target_1,0.15000000596046448,0.10000000149011612,0.019999999552965164,0.036999999855016244,target_2,-0.10000000149011612,0.0,0.019999999552965164,0.2777930898369348,target_3,-0.10000000149011612,0.10000000149011612,0.019999999552965164,0.24973786394863265,False,61
1,63,PICK_AND_PLACE,0.026,-0.032,-0.116,-1.0,0.134,0.106,0.028,-0.047,-0.019,-0.211,0.038,AGARRADA,0.141,0.116,0.019,target_1,1,0.15,0.1,0.02,0.0142,0.0184,-0.0184,False,False,0,box,0.0,0.02,0.3,0.1,box,1.0,0.04,0.04,0.04,1.1,0.7,0.4,-0.3,ee,False,-0.6,0.0,0.05,script_1|reach_only|left_right,0.14,1.04,0.0,-1.22,-0.0,2.21,0.93,-0.01,0.3,-0.0,-0.02,0.0,0.22,-0.01,-0.001,0.002,0.001,-0.002,-0.001,0.022,goal_sequence,4,target,0.15000000596046448,0.0,0.019999999552965164,0.11635291189477953,target_1,0.15000000596046448,0.10000000149011612,0.019999999552965164,0.018384777907568355,target_2,-0.10000000149011612,0.0,0.019999999552965164,0.26746588701616114,target_3,-0.10000000149011612,0.10000000149011612,0.019999999552965164,0.24153260788071285,False,62
1,64,PICK_AND_PLACE,0.152,-0.062,0.986,1.0,0.129,0.102,0.026,0.039,-0.027,0.181,0.075,ABERTA,0.141,0.116,0.02,target_1,1,0.15,0.1,0.02,0.0189,0.0184,-0.0184,False,False,0,box,0.0,0.02,0.3,0.1,box,1.0,0.04,0.04,0.04,1.1,0.7,0.4,-0.3,ee,False,-0.6,0.0,0.05,script_1|reach_only|left_right,0.14,1.03,0.0,-1.23,-0.0,2.19,0.93,-0.04,-0.29,-0.0,-0.05,0.0,-0.16,-0.04,-0.0,0.0,0.001,-0.0,-0.0,0.004,goal_sequence,4,target,0.15000000596046448,0.0,0.019999999552965164,0.11634861454821195,target_1,0.15000000596046448,0.10000000149011612,0.019999999552965164,0.018357561374122738,target_2,-0.10000000149011612,0.0,0.019999999552965164,0.2674640176140259,target_3,-0.10000000149011612,0.10000000149011612,0.019999999552965164,0.24153053775982913,False,63
1,65,PICK_AND_PLACE,0.199,-0.021,0.98,1.0,0.134,0.101,0.041,0.227,0.015,0.597,0.079,ABERTA,0.141,0.116,0.02,target_1,1,0.15,0.1,0.02,0.0265,0.0184,-0.0184,False,False,0,box,0.0,0.02,0.3,0.1,box,1.0,0.04,0.04,0.04,1.1,0.7,0.4,-0.3,ee,False,-0.6,0.0,0.05,script_1|reach_only|left_right,0.13,1.01,0.0,-1.24,-0.0,2.2,0.92,-0.02,-0.84,-0.0,-0.06,0.0,0.03,-0.02,-0.0,0.0,0.001,-0.0,-0.0,0.001,goal_sequence,4,target,0.15000000596046448,0.0,0.019999999552965164,0.11634861454821195,target_1,0.15000000596046448,0.10000000149011612,0.019999999552965164,0.018357561374122738,target_2,-0.10000000149011612,0.0,0.019999999552965164,0.2674640176140259,target_3,-0.10000000149011612,0.10000000149011612,0.019999999552965164,0.24153053775982913,False,64
1,66,PICK_AND_PLACE,0.176,-0.009,0.984,1.0,0.142,0.1,0.072,0.288,0.028,0.917,0.08,ABERTA,0.141,0.116,0.02,target_1,1,0.15,0.1,0.02,0.0541,0.0184,-0.0184,False,False,0,box,0.0,0.02,0.3,0.1,box,1.0,0.04,0.04,0.04,1.1,0.7,0.4,-0.3,ee,False,-0.6,0.0,0.05,script_1|reach_only|left_right,0.13,0.96,0.0,-1.24,-0.0,2.18,0.92,-0.01,-1.25,0.0,-0.02,0.0,-0.14,-0.01,-0.0,0.0,0.001,-0.0,-0.0,0.0,goal_sequence,4,target,0.15000000596046448,0.0,0.019999999552965164,0.11634861454821195,target_1,0.15000000596046448,0.10000000149011612,0.019999999552965164,0.018357561374122738,target_2,-0.10000000149011612,0.0,0.019999999552965164,0.2674640176140259,target_3,-0.10000000149011612,0.10000000149011612,0.019999999552965164,0.24153053775982913,False,65
1,67,PICK_AND_PLACE,0.14,-0.008,0.99,1.0,0.147,0.1,0.111,0.144,0.01,0.682,0.08,ABERTA,0.141,0.116,0.02,target_1,1,0.15,0.1,0.02,0.0931,0.0184,-0.0184,False,False,0,box,0.0,0.02,0.3,0.1,box,1.0,0.04,0.04,0.04,1.1,0.7,0.4,-0.3,ee,False,-0.6,0.0,0.05,script_1|reach_only|left_right,0.13,0.91,0.0,-1.23,-0.0,2.13,0.92,-0.01,-0.92,0.0,0.05,0.0,-0.35,-0.01,0.0,-0.0,0.001,-0.0,0.0,0.0,goal_sequence,4,target,0.15000000596046448,0.0,0.019999999552965164,0.11634861454821195,target_1,0.15000000596046448,0.10000000149011612,0.019999999552965164,0.018357561374122738,target_2,-0.10000000149011612,0.0,0.019999999552965164,0.2674640176140259,target_3,-0.10000000149011612,0.10000000149011612,0.019999999552965164,0.24153053775982913,False,66
1,68,PICK_AND_PLACE,0.134,-0.004,0.991,1.0,0.148,0.099,0.145,0.14,0.012,0.833,0.08,ABERTA,0.141,0.116,0.02,target_2,2,-0.1,0.0,0.02,0.1267,0.267,-0.267,False,True,1,box,0.0,0.02,0.3,0.1,box,1.0,0.04,0.04,0.04,1.1,0.7,0.4,-0.3,ee,False,-0.6,0.0,0.05,script_1|reach_only|left_right,0.13,0.87,0.0,-1.22,-0.0,2.07,0.92,-0.01,-1.08,0.0,0.13,0.0,-0.49,-0.01,0.0,-0.0,0.001,-0.0,0.0,0.0,goal_sequence,4,target,0.15000000596046448,0.0,0.019999999552965164,0.11634861454821195,target_1,0.15000000596046448,0.10000000149011612,0.019999999552965164,0.018357561374122738,target_2,-0.10000000149011612,0.0,0.019999999552965164,0.2674640176140259,target_3,-0.10000000149011612,0.10000000149011612,0.019999999552965164,0.24153053775982913,True,67
1,69,PICK_AND_PLACE,-0.253,0.529,-0.81,1.0,0.156,0.118,0.153,-0.166,0.597,-0.569,0.08,ABERTA,0.141,0.116,0.02,target_2,2,-0.1,0.0,0.02,0.1344,0.267,-0.267,False,True,1,box,0.0,0.02,0.3,0.1,box,1.0,0.04,0.04,0.04,1.1,0.7,0.4,-0.3,ee,False,-0.6,0.0,0.05,script_1|reach_only|left_right,0.15,0.85,0.01,-1.24,-0.01,2.15,0.95,0.79,0.69,0.02,-0.21,-0.03,0.59,0.26,0.0,-0.0,0.001,-0.0,0.0,0.0,goal_sequence,4,target,0.15000000596046448,0.0,0.019999999552965164,0.11634861454821195,target_1,0.15000000596046448,0.10000000149011612,0.019999999552965164,0.018357561374122738,target_2,-0.10000000149011612,0.0,0.019999999552965164,0.2674640176140259,target_3,-0.10000000149011612,0.10000000149011612,0.019999999552965164,0.24153053775982913,False,68
1,70,PICK_AND_PLACE,-0.419,-0.058,-0.906,1.0,0.14,0.121,0.11,-0.298,-0.332,-1.028,0.08,ABERTA,0.141,0.116,0.02,target_2,2,-0.1,0.0,0.02,0.0906,0.267,-0.267,False,True,1,box,0.0,0.02,0.3,0.1,box,1.0,0.04,0.04,0.04,1.1,0.7,0.4,-0.3,ee,False,-0.6,0.0,0.05,script_1|reach_only|left_right,0.16,0.89,0.01,-1.28,-0.01,2.17,0.95,-0.38,1.2,0.0,-0.32,-0.01,0.16,-0.06,0.0,-0.0,0.001,-0.0,0.0,0.0,goal_sequence,4,target,0.15000000596046448,0.0,0.019999999552965164,0.11634861454821195,target_1,0.15000000596046448,0.10000000149011612,0.019999999552965164,0.018357561374122738,target_2,-0.10000000149011612,0.0,0.019999999552965164,0.2674640176140259,target_3,-0.10000000149011612,0.10000000149011612,0.019999999552965164,0.24153053775982913,False,69
1,71,PICK_AND_PLACE,0.044,-0.508,0.86,1.0,0.121,0.098,0.077,-0.251,-0.298,-0.571,0.08,ABERTA,0.141,0.116,0.02,target_2,2,-0.1,0.0,0.02,0.0624,0.267,-0.267,False,True,1,box,0.0,0.02,0.3,0.1,box,1.0,0.04,0.04,0.04,1.1,0.7,0.4,-0.3,ee,False,-0.6,0.0,0.05,script_1|reach_only|left_right,0.13,0.93,0.0,-1.28,-0.0,2.11,0.92,-0.34,0.74,-0.03,0.0,0.03,-0.46,-0.2,-0.0,-0.0,0.001,0.0,-0.0,0.0,goal_sequence,4,target,0.15000000596046448,0.0,0.019999999552965164,0.11634861454821195,target_1,0.15000000596046448,0.10000000149011612,0.019999999552965164,0.018357561374122738,target_2,-0.10000000149011612,0.0,0.019999999552965164,0.2674640176140259,target_3,-0.10000000149011612,0.10000000149011612,0.019999999552965164,0.24153053775982913,False,70
1,72,PICK_AND_PLACE,0.103,0.096,-0.249,1.0,0.132,0.102,0.058,0.013,0.095,-0.295,0.08,ABERTA,0.141,0.116,0.02,target_2,2,-0.1,0.0,0.02,0.0416,0.267,-0.267,False,True,1,box,0.0,0.02,0.3,0.1,box,1.0,0.04,0.04,0.04,1.1,0.7,0.4,-0.3,ee,False,-0.6,0.0,0.05,script_1|reach_only|left_right,0.14,0.95,0.0,-1.29,-0.0,2.23,0.93,0.12,0.42,0.0,-0.13,-0.0,0.91,0.06,-0.0,-0.0,0.001,0.0,-0.0,0.0,goal_sequence,4,target,0.15000000596046448,0.0,0.019999999552965164,0.11634861454821195,target_1,0.15000000596046448,0.10000000149011612,0.019999999552965164,0.018357561374122738,target_2,-0.10000000149011612,0.0,0.019999999552965164,0.2674640176140259,target_3,-0.10000000149011612,0.10000000149011612,0.019999999552965164,0.24153053775982913,False,71
1,73,PICK_AND_PLACE,0.027,0.046,-0.092,1.0,0.135,0.104,0.054,0.028,0.017,-0.016,0.08,ABERTA,0.141,0.116,0.02,target_2,2,-0.1,0.0,0.02,0.0362,0.267,-0.267,False,True,1,box,0.0,0.02,0.3,0.1,box,1.0,0.04,0.04,0.04,1.1,0.7,0.4,-0.3,ee,False,-0.6,0.0,0.05,script_1|reach_only|left_right,0.14,0.96,0.0,-1.3,-0.0,2.26,0.93,0.02,0.03,0.0,-0.03,-0.0,0.23,0.01,-0.0,-0.0,0.001,0.0,-0.0,0.0,goal_sequence,4,target,0.15000000596046448,0.0,0.019999999552965164,0.11634861454821195,target_1,0.15000000596046448,0.10000000149011612,0.019999999552965164,0.018357561374122738,target_2,-0.10000000149011612,0.0,0.019999999552965164,0.2674640176140259,target_3,-0.10000000149011612,0.10000000149011612,0.019999999552965164,0.24153053775982913,False,72
1,74,PICK_AND_PLACE,0.015,0.032,-0.064,1.0,0.136,0.105,0.051,0.003,0.011,-0.023,0.08,ABERTA,0.141,0.116,0.02,target_2,2,-0.1,0.0,0.02,0.0331,0.267,-0.267,False,True,1,box,0.0,0.02,0.3,0.1,box,1.0,0.04,0.04,0.04,1.1,0.7,0.4,-0.3,ee,False,-0.6,0.0,0.05,script_1|reach_only|left_right,0.14,0.97,0.0,-1.3,-0.0,2.26,0.93,0.01,0.04,0.0,0.01,-0.0,0.05,0.01,-0.0,-0.0,0.001,0.0,-0.0,0.0,goal_sequence,4,target,0.15000000596046448,0.0,0.019999999552965164,0.11634861454821195,target_1,0.15000000596046448,0.10000000149011612,0.019999999552965164,0.018357561374122738,target_2,-0.10000000149011612,0.0,0.019999999552965164,0.2674640176140259,target_3,-0.10000000149011612,0.10000000149011612,0.019999999552965164,0.24153053775982913,False,73
1,75,PICK_AND_PLACE,0.012,0.026,-0.052,1.0,0.136,0.106,0.049,0.0,0.008,-0.018,0.08,ABERTA,0.141,0.116,0.02,target_2,2,-0.1,0.0,0.02,0.0307,0.267,-0.267,False,True,1,box,0.0,0.02,0.3,0.1,box,1.0,0.04,0.04,0.04,1.1,0.7,0.4,-0.3,ee,False,-0.6,0.0,0.05,script_1|reach_only|left_right,0.14,0.97,0.0,-1.29,-0.0,2.27,0.93,0.01,0.04,0.0,0.02,-0.0,0.02,0.01,-0.0,-0.0,0.001,0.0,-0.0,0.0,goal_sequence,4,target,0.15000000596046448,0.0,0.019999999552965164,0.11634861454821195,target_1,0.15000000596046448,0.10000000149011612,0.019999999552965164,0.018357561374122738,target_2,-0.10000000149011612,0.0,0.019999999552965164,0.2674640176140259,target_3,-0.10000000149011612,0.10000000149011612,0.019999999552965164,0.24153053775982913,False,74
1,76,PICK_AND_PLACE,0.013,0.026,-0.052,1.0,0.136,0.107,0.047,-0.0,0.008,-0.018,0.08,ABERTA,0.141,0.116,0.02,target_2,2,-0.1,0.0,0.02,0.0283,0.267,-0.267,False,True,1,box,0.0,0.02,0.3,0.1,box,1.0,0.04,0.04,0.04,1.1,0.7,0.4,-0.3,ee,False,-0.6,0.0,0.05,script_1|reach_only|left_right,0.14,0.98,0.0,-1.29,-0.0,2.27,0.93,0.01,0.04,0.0,0.02,-0.0,0.02,0.01,-0.0,-0.0,0.001,0.0,-0.0,0.0,goal_sequence,4,target,0.15000000596046448,0.0,0.019999999552965164,0.11634861454821195,target_1,0.15000000596046448,0.10000000149011612,0.019999999552965164,0.018357561374122738,target_2,-0.10000000149011612,0.0,0.019999999552965164,0.2674640176140259,target_3,-0.10000000149011612,0.10000000149011612,0.019999999552965164,0.24153053775982913,False,75
1,77,PICK_AND_PLACE,0.015,0.026,-0.052,1.0,0.136,0.108,0.044,-0.0,0.008,-0.017,0.08,ABERTA,0.141,0.116,0.02,target_2,2,-0.1,0.0,0.02,0.026,0.267,-0.267,False,True,1,box,0.0,0.02,0.3,0.1,box,1.0,0.04,0.04,0.04,1.1,0.7,0.4,-0.3,ee,False,-0.6,0.0,0.05,script_1|reach_only|left_right,0.14,0.98,0.0,-1.29,-0.0,2.27,0.93,0.01,0.04,0.0,0.02,-0.0,0.01,0.01,-0.0,-0.0,0.001,0.0,-0.0,0.0,goal_sequence,4,target,0.15000000596046448,0.0,0.019999999552965164,0.11634861454821195,target_1,0.15000000596046448,0.10000000149011612,0.019999999552965164,0.018357561374122738,target_2,-0.10000000149011612,0.0,0.019999999552965164,0.2674640176140259,target_3,-0.10000000149011612,0.10000000149011612,0.019999999552965164,0.24153053775982913,False,76
1,78,PICK_AND_PLACE,0.017,0.026,-0.051,1.0,0.136,0.109,0.042,0.0,0.008,-0.017,0.08,ABERTA,0.141,0.116,0.02,target_2,2,-0.1,0.0,0.02,0.0237,0.267,-0.267,False,True,1,box,0.0,0.02,0.3,0.1,box,1.0,0.04,0.04,0.04,1.1,0.7,0.4,-0.3,ee,False,-0.6,0.0,0.05,script_1|reach_only|left_right,0.14,0.99,0.0,-1.28,-0.0,2.27,0.94,0.01,0.04,0.0,0.02,-0.0,0.01,0.01,-0.0,-0.0,0.001,0.0,-0.0,0.0,goal_sequence,4,target,0.15000000596046448,0.0,0.019999999552965164,0.11634861454821195,target_1,0.15000000596046448,0.10000000149011612,0.019999999552965164,0.018357561374122738,target_2,-0.10000000149011612,0.0,0.019999999552965164,0.2674640176140259,target_3,-0.10000000149011612,0.10000000149011612,0.019999999552965164,0.24153053775982913,False,77
1,79,PICK_AND_PLACE,0.019,0.026,-0.05,1.0,0.136,0.11,0.04,0.0,0.008,-0.017,0.08,ABERTA,0.141,0.116,0.02,target_2,2,-0.1,0.0,0.02,0.0215,0.267,-0.267,False,True,1,box,0.0,0.02,0.3,0.1,box,1.0,0.04,0.04,0.04,1.1,0.7,0.4,-0.3,ee,False,-0.6,0.0,0.05,script_1|reach_only|left_right,0.15,0.99,0.0,-1.28,-0.01,2.27,0.94,0.01,0.04,0.0,0.03,-0.0,0.01,0.01,-0.0,-0.0,0.001,0.0,-0.0,0.0,goal_sequence,4,target,0.15000000596046448,0.0,0.019999999552965164,0.11634861454821195,target_1,0.15000000596046448,0.10000000149011612,0.019999999552965164,0.018357561374122738,target_2,-0.10000000149011612,0.0,0.019999999552965164,0.2674640176140259,target_3,-0.10000000149011612,0.10000000149011612,0.019999999552965164,0.24153053775982913,False,78
1,80,PICK_AND_PLACE,0.022,0.026,-0.049,1.0,0.136,0.111,0.038,0.001,0.008,-0.016,0.08,ABERTA,0.141,0.116,0.02,target_2,2,-0.1,0.0,0.02,0.0193,0.267,-0.267,False,True,1,box,0.0,0.02,0.3,0.1,box,1.0,0.04,0.04,0.04,1.1,0.7,0.4,-0.3,ee,False,-0.6,0.0,0.05,script_1|reach_only|left_right,0.15,1.0,0.0,-1.28,-0.01,2.27,0.94,0.01,0.04,0.0,0.03,-0.0,0.01,0.01,-0.0,-0.0,0.001,0.0,-0.0,0.0,goal_sequence,4,target,0.15000000596046448,0.0,0.019999999552965164,0.11634861454821195,target_1,0.15000000596046448,0.10000000149011612,0.019999999552965164,0.018357561374122738,target_2,-0.10000000149011612,0.0,0.019999999552965164,0.2674640176140259,target_3,-0.10000000149011612,0.10000000149011612,0.019999999552965164,0.24153053775982913,False,79
1,81,PICK_AND_PLACE,0.026,0.025,-0.048,1.0,0.136,0.112,0.036,0.001,0.007,-0.016,0.08,ABERTA,0.141,0.116,0.02,target_2,2,-0.1,0.0,0.02,0.0172,0.267,-0.267,False,True,1,box,0.0,0.02,0.3,0.1,box,1.0,0.04,0.04,0.04,1.1,0.7,0.4,-0.3,ee,False,-0.6,0.0,0.05,script_1|reach_only|left_right,0.15,1.0,0.0,-1.27,-0.01,2.27,0.94,0.01,0.04,0.0,0.03,-0.0,0.01,0.01,-0.0,-0.0,0.001,0.0,-0.0,0.0,goal_sequence,4,target,0.15000000596046448,0.0,0.019999999552965164,0.11634861454821195,target_1,0.15000000596046448,0.10000000149011612,0.019999999552965164,0.018357561374122738,target_2,-0.10000000149011612,0.0,0.019999999552965164,0.2674640176140259,target_3,-0.10000000149011612,0.10000000149011612,0.019999999552965164,0.24153053775982913,False,80
1,82,PICK_AND_PLACE,0.031,0.024,-0.045,1.0,0.137,0.113,0.034,0.002,0.007,-0.015,0.08,ABERTA,0.141,0.116,0.02,target_2,2,-0.1,0.0,0.02,0.0152,0.267,-0.267,False,True,1,box,0.0,0.02,0.3,0.1,box,1.0,0.04,0.04,0.04,1.1,0.7,0.4,-0.3,ee,False,-0.6,0.0,0.05,script_1|reach_only|left_right,0.15,1.01,0.0,-1.27,-0.01,2.28,0.94,0.01,0.04,0.0,0.04,-0.0,0.0,0.01,0.0,-0.0,0.001,0.0,-0.0,0.0,goal_sequence,4,target,0.15000000596046448,0.0,0.019999999552965164,0.11634861454821195,target_1,0.15000000596046448,0.10000000149011612,0.019999999552965164,0.018357561374122738,target_2,-0.10000000149011612,0.0,0.019999999552965164,0.2674640176140259,target_3,-0.10000000149011612,0.10000000149011612,0.019999999552965164,0.24153053775982913,False,81
1,83,PICK_AND_PLACE,0.036,0.023,-0.042,-1.0,0.137,0.114,0.033,0.005,-0.003,-0.006,0.038,AGARRADA,0.141,0.115,0.02,target_2,2,-0.1,0.0,0.02,0.0136,0.2667,-0.2667,False,True,1,box,0.0,0.02,0.3,0.1,box,1.0,0.04,0.04,0.04,1.1,0.7,0.4,-0.3,ee,False,-0.6,0.0,0.05,script_1|reach_only|left_right,0.15,1.01,0.0,-1.26,-0.0,2.28,0.94,0.0,0.03,0.0,0.04,-0.07,-0.01,0.01,0.002,0.002,0.005,0.003,-0.003,-0.001,goal_sequence,4,target,0.15000000596046448,0.0,0.019999999552965164,0.11535163677767385,target_1,0.15000000596046448,0.10000000149011612,0.019999999552965164,0.01749285747340655,target_2,-0.10000000149011612,0.0,0.019999999552965164,0.2670318346531663,target_3,-0.10000000149011612,0.10000000149011612,0.019999999552965164,0.24146635515850337,False,82
1,84,PICK_AND_PLACE,-0.005,-0.01,1.0,-1.0,0.128,0.113,0.042,0.053,0.005,0.421,0.037,AGARRADA,0.132,0.117,0.031,target_2,2,-0.1,0.0,0.02,0.0133,0.2603,-0.2603,False,True,1,box,0.0,0.02,0.3,0.1,box,1.0,0.04,0.04,0.04,1.1,0.7,0.4,-0.3,ee,False,-0.6,0.0,0.05,script_1|reach_only|left_right,0.15,0.99,0.0,-1.27,-0.0,2.21,0.94,-0.0,-0.68,-0.0,-0.1,0.0,-0.48,-0.0,-0.004,-0.032,0.006,0.054,0.065,0.421,goal_sequence,4,target,0.15000000596046448,0.0,0.019999999552965164,0.11888650143902597,target_1,0.15000000596046448,0.10000000149011612,0.019999999552965164,0.027092437574858,target_2,-0.10000000149011612,0.0,0.019999999552965164,0.2600653777442293,target_3,-0.10000000149011612,0.10000000149011612,0.019999999552965164,0.23288194573771642,False,83
1,85,PICK_AND_PLACE,0.098,0.009,0.995,-1.0,0.13,0.113,0.064,0.214,0.03,0.712,0.037,AGARRADA,0.135,0.12,0.053,target_2,2,-0.1,0.0,0.02,0.014,0.2662,-0.2662,False,True,1,box,0.0,0.02,0.3,0.1,box,1.0,0.04,0.04,0.04,1.1,0.7,0.4,-0.3,ee,False,-0.6,0.0,0.05,script_1|reach_only|left_right,0.15,0.95,0.0,-1.28,-0.0,2.2,0.94,-0.0,-1.03,0.0,-0.09,0.0,-0.12,-0.0,-0.003,-0.044,0.006,0.224,0.069,0.717,goal_sequence,4,target,0.15000000596046448,0.0,0.019999999552965164,0.12535549532556706,target_1,0.15000000596046448,0.10000000149011612,0.019999999552965164,0.041400484885006195,target_2,-0.10000000149011612,0.0,0.019999999552965164,0.26592104228484603,target_3,-0.10000000149011612,0.10000000149011612,0.019999999552965164,0.2381470148254104,False,84
1,86,PICK_AND_PLACE,0.091,0.009,0.996,-1.0,0.135,0.113,0.097,0.217,0.031,0.855,0.037,AGARRADA,0.14,0.123,0.087,target_2,2,-0.1,0.0,0.02,0.0151,0.2779,-0.2779,False,True,1,box,0.0,0.02,0.3,0.1,box,1.0,0.04,0.04,0.04,1.1,0.7,0.4,-0.3,ee,False,-0.6,0.0,0.05,script_1|reach_only|left_right,0.15,0.89,0.0,-1.29,-0.0,2.17,0.94,-0.0,-1.2,0.0,-0.04,0.0,-0.22,-0.0,-0.001,-0.062,0.007,0.227,0.071,0.861,goal_sequence,4,target,0.15000000596046448,0.0,0.019999999552965164,0.1404207968183915,target_1,0.15000000596046448,0.10000000149011612,0.019999999552965164,0.0715401992628386,target_2,-0.10000000149011612,0.0,0.019999999552965164,0.2778812710046476,target_3,-0.10000000149011612,0.10000000149011612,0.019999999552965164,0.2502358901249241,False,85
1,87,PICK_AND_PLACE,0.048,0.004,0.999,-1.0,0.137,0.113,0.135,0.134,0.019,0.771,0.037,AGARRADA,0.142,0.126,0.124,target_2,2,-0.1,0.0,0.02,0.017,0.292,-0.292,False,True,1,box,0.0,0.02,0.3,0.1,box,1.0,0.04,0.04,0.04,1.1,0.7,0.4,-0.3,ee,False,-0.6,0.0,0.05,script_1|reach_only|left_right,0.15,0.84,0.0,-1.29,-0.0,2.12,0.94,-0.0,-1.07,0.0,0.01,0.0,-0.37,-0.0,-0.0,-0.069,0.006,0.141,0.071,0.776,goal_sequence,4,target,0.15000000596046448,0.0,0.019999999552965164,0.16357261442047907,target_1,0.15000000596046448,0.10000000149011612,0.019999999552965164,0.10749883771866874,target_2,-0.10000000149011612,0.0,0.019999999552965164,0.2919863024427678,target_3,-0.10000000149011612,0.10000000149011612,0.019999999552965164,0.2646809413930542,False,86
1,88,PICK_AND_PLACE,-0.527,0.001,-0.85,-1.0,0.14,0.117,0.141,-0.137,0.01,-0.471,0.037,AGARRADA,0.145,0.129,0.128,target_2,2,-0.1,0.0,0.02,0.0178,0.2973,-0.2973,False,True,1,box,0.0,0.02,0.3,0.1,box,1.0,0.04,0.04,0.04,1.1,0.7,0.4,-0.3,ee,False,-0.6,0.0,0.05,script_1|reach_only|left_right,0.15,0.8,0.01,-1.36,-0.0,2.22,0.95,0.04,0.33,0.0,-0.64,-0.01,0.75,0.04,0.009,-0.117,0.002,-0.14,0.077,-0.472,goal_sequence,4,target,0.15000000596046448,0.0,0.019999999552965164,0.16831518100327197,target_1,0.15000000596046448,0.10000000149011612,0.019999999552965164,0.11193748286314764,target_2,-0.10000000149011612,0.0,0.019999999552965164,0.29720363528516336,target_3,-0.10000000149011612,0.10000000149011612,0.019999999552965164,0.2693139445708107,False,87
1,89,PICK_AND_PLACE,-0.897,-0.439,-0.042,-1.0,0.11,0.101,0.123,-0.168,-0.224,0.03,0.038,AGARRADA,0.114,0.118,0.11,target_2,2,-0.1,0.0,0.02,0.0214,0.2606,-0.2606,False,True,1,box,0.0,0.02,0.3,0.1,box,1.0,0.04,0.04,0.04,1.1,0.7,0.4,-0.3,ee,False,-0.6,0.0,0.05,script_1|reach_only|left_right,0.14,0.76,0.0,-1.46,-0.0,2.2,0.93,-0.26,-0.51,-0.02,-0.74,0.02,-0.1,-0.15,0.0,-0.022,0.004,-0.17,-0.208,0.021,goal_sequence,4,target,0.15000000596046448,0.0,0.019999999552965164,0.15270887501916758,target_1,0.15000000596046448,0.10000000149011612,0.019999999552965164,0.09859006266341233,target_2,-0.10000000149011612,0.0,0.019999999552965164,0.2604227346416514,target_3,-0.10000000149011612,0.10000000149011612,0.019999999552965164,0.23285188567969936,False,88
1,90,PICK_AND_PLACE,-0.9,-0.435,0.032,-1.0,0.091,0.086,0.124,-0.236,-0.172,0.014,0.038,AGARRADA,0.095,0.099,0.111,target_2,2,-0.1,0.0,0.02,0.0185,0.2372,-0.2372,False,True,1,box,0.0,0.02,0.3,0.1,box,1.0,0.04,0.04,0.04,1.1,0.7,0.4,-0.3,ee,False,-0.6,0.0,0.05,script_1|reach_only|left_right,0.12,0.69,0.0,-1.59,-0.0,2.28,0.91,-0.19,-0.78,-0.02,-1.34,0.01,0.56,-0.14,0.003,-0.033,0.004,-0.235,-0.561,0.014,goal_sequence,4,target,0.15000000596046448,0.0,0.019999999552965164,0.1452824859954271,target_1,0.15000000596046448,0.10000000149011612,0.019999999552965164,0.1063343817398291,target_2,-0.10000000149011612,0.0,0.019999999552965164,0.23686916359565596,target_3,-0.10000000149011612,0.10000000149011612,0.019999999552965164,0.21519061472444811,False,89
1,91,PICK_AND_PLACE,-0.912,-0.409,0.03,-1.0,0.067,0.07,0.123,-0.218,-0.155,0.079,0.038,AGARRADA,0.071,0.076,0.111,target_2,2,-0.1,0.0,0.02,0.0143,0.2082,-0.2082,False,True,1,box,0.0,0.02,0.3,0.1,box,1.0,0.04,0.04,0.04,1.1,0.7,0.4,-0.3,ee,False,-0.6,0.0,0.05,script_1|reach_only|left_right,0.11,0.61,-0.0,-1.72,0.0,2.33,0.89,-0.18,-0.8,-0.02,-1.17,0.02,0.44,-0.15,0.004,-0.034,0.004,-0.217,-0.561,0.079,goal_sequence,4,target,0.15000000596046448,0.0,0.019999999552965164,0.14247105328140788,target_1,0.15000000596046448,0.10000000149011612,0.019999999552965164,0.12287392357469237,target_2,-0.10000000149011612,0.0,0.019999999552965164,0.20808171613810775,target_3,-0.10000000149011612,0.10000000149011612,0.019999999552965164,0.19518709143410493,False,90
1,92,PICK_AND_PLACE,-0.921,-0.387,0.036,-1.0,0.041,0.055,0.124,-0.295,-0.154,0.037,0.038,AGARRADA,0.045,0.054,0.112,target_2,2,-0.1,0.0,0.02,0.0129,0.1797,-0.1797,False,False,0,box,0.0,0.02,0.3,0.1,box,1.0,0.04,0.04,0.04,1.1,0.7,0.4,-0.3,ee,False,-0.6,0.0,0.05,script_1|reach_only|left_right,0.09,0.54,-0.01,-1.85,0.0,2.39,0.87,-0.18,-0.83,-0.02,-1.31,0.02,0.43,-0.16,0.004,-0.035,0.004,-0.296,-0.561,0.037,goal_sequence,4,target,0.15000000596046448,0.0,0.019999999552965164,0.1496830028224714,target_1,0.15000000596046448,0.10000000149011612,0.019999999552965164,0.14698639893215518,target_2,-0.10000000149011612,0.0,0.019999999552965164,0.180013889781839,target_3,-0.10000000149011612,0.10000000149011612,0.019999999552965164,0.17777795322108636,False,91
1,93,PICK_AND_PLACE,-0.931,-0.363,0.038,-1.0,0.011,0.04,0.125,-0.301,-0.141,0.06,0.038,AGARRADA,0.016,0.031,0.112,target_2,2,-0.1,0.0,0.02,0.0156,0.1513,-0.1513,False,False,0,box,0.0,0.02,0.3,0.1,box,1.0,0.04,0.04,0.04,1.1,0.7,0.4,-0.3,ee,False,-0.6,0.0,0.05,script_1|reach_only|left_right,0.08,0.46,-0.01,-1.98,0.01,2.44,0.85,-0.17,-0.86,-0.03,-1.27,0.02,0.4,-0.16,0.004,-0.036,0.005,-0.302,-0.561,0.06,goal_sequence,4,target,0.15000000596046448,0.0,0.019999999552965164,0.16547205709623278,target_1,0.15000000596046448,0.10000000149011612,0.019999999552965164,0.17658143131511578,target_2,-0.10000000149011612,0.0,0.019999999552965164,0.1512646701247894,target_3,-0.10000000149011612,0.10000000149011612,0.019999999552965164,0.16334319892054697,False,92
1,94,PICK_AND_PLACE,-0.939,-0.34,0.045,-1.0,-0.019,0.026,0.125,-0.333,-0.134,0.054,0.038,AGARRADA,-0.015,0.011,0.113,target_2,2,-0.1,0.0,0.02,0.0203,0.1265,-0.1265,False,False,0,box,0.0,0.02,0.3,0.1,box,1.0,0.04,0.04,0.04,1.1,0.7,0.4,-0.3,ee,False,-0.6,0.0,0.05,script_1|reach_only|left_right,0.06,0.39,-0.02,-2.11,0.01,2.49,0.82,-0.17,-0.89,-0.04,-1.29,0.02,0.38,-0.17,0.004,-0.037,0.005,-0.335,-0.304,0.054,goal_sequence,4,target,0.15000000596046448,0.0,0.019999999552965164,0.18972348839851588,target_1,0.15000000596046448,0.10000000149011612,0.019999999552965164,0.20927255509345336,target_2,-0.10000000149011612,0.0,0.019999999552965164,0.1264713419572522,target_3,-0.10000000149011612,0.10000000149011612,0.019999999552965164,0.1542562822114837,False,93
1,95,PICK_AND_PLACE,-0.949,-0.31,0.054,-1.0,-0.052,0.014,0.126,-0.389,-0.116,0.028,0.038,AGARRADA,-0.048,-0.002,0.114,target_2,2,-0.1,0.0,0.02,0.0198,0.1073,-0.1073,False,False,0,box,0.0,0.02,0.3,0.1,box,1.0,0.04,0.04,0.04,1.1,0.7,0.4,-0.3,ee,False,-0.6,0.0,0.05,script_1|reach_only|left_right,0.05,0.31,-0.02,-2.23,0.01,2.54,0.8,-0.16,-0.92,-0.04,-1.36,0.01,0.35,-0.17,0.004,-0.036,0.005,-0.391,-0.305,0.028,goal_sequence,4,target,0.15000000596046448,0.0,0.019999999552965164,0.2191894213788305,target_1,0.15000000596046448,0.10000000149011612,0.019999999552965164,0.2417519446630579,target_2,-0.10000000149011612,0.0,0.019999999552965164,0.10744300926079198,target_3,-0.10000000149011612,0.10000000149011612,0.019999999552965164,0.14813507532991071,False,94
1,96,PICK_AND_PLACE,-0.96,-0.27,0.079,-1.0,-0.086,0.002,0.127,-0.439,-0.099,0.019,0.038,AGARRADA,-0.083,-0.014,0.115,target_2,2,-0.1,0.0,0.02,0.0204,0.0972,-0.0972,False,False,0,box,0.0,0.02,0.3,0.1,box,1.0,0.04,0.04,0.04,1.1,0.7,0.4,-0.3,ee,False,-0.6,0.0,0.05,script_1|reach_only|left_right,0.03,0.23,-0.03,-2.35,0.01,2.58,0.78,-0.14,-0.99,-0.05,-1.44,0.0,0.32,-0.16,0.004,-0.034,0.005,-0.441,-0.259,0.018,goal_sequence,4,target,0.15000000596046448,0.0,0.019999999552965164,0.25201191016004204,target_1,0.15000000596046448,0.10000000149011612,0.019999999552965164,0.27624265275706356,target_2,-0.10000000149011612,0.0,0.019999999552965164,0.0975192295683296,target_3,-0.10000000149011612,0.10000000149011612,0.019999999552965164,0.14936532554561333,False,95
1,97,PICK_AND_PLACE,-0.963,-0.151,0.224,-1.0,-0.126,-0.005,0.129,-0.555,-0.041,0.049,0.038,AGARRADA,-0.122,-0.022,0.117,target_2,2,-0.1,0.0,0.02,0.0217,0.1021,-0.1021,False,False,0,box,0.0,0.02,0.3,0.1,box,1.0,0.04,0.04,0.04,1.1,0.7,0.4,-0.3,ee,False,-0.6,0.0,0.05,script_1|reach_only|left_right,0.03,0.14,-0.04,-2.48,0.01,2.6,0.77,-0.06,-1.33,-0.04,-1.71,-0.02,0.19,-0.09,0.004,-0.024,0.004,-0.557,-0.091,0.048,goal_sequence,4,target,0.15000000596046448,0.0,0.019999999552965164,0.28961526777643726,target_1,0.15000000596046448,0.10000000149011612,0.019999999552965164,0.313491632572236,target_2,-0.10000000149011612,0.0,0.019999999552965164,0.10186756118195651,target_3,-0.10000000149011612,0.10000000149011612,0.019999999552965164,0.1574071166902818,False,96
1,98,PICK_AND_PLACE,0.251,0.045,-0.967,-1.0,-0.108,-0.002,0.116,0.222,0.006,-1.029,0.037,AGARRADA,-0.103,-0.016,0.101,target_2,2,-0.1,0.0,0.02,0.0203,0.083,-0.083,False,False,0,box,0.0,0.02,0.3,0.1,box,1.0,0.04,0.04,0.04,1.1,0.7,0.4,-0.3,ee,False,-0.6,0.0,0.05,script_1|reach_only|left_right,0.03,0.21,-0.03,-2.46,0.02,2.71,0.77,0.01,3.33,0.04,1.53,0.06,0.81,-0.0,-0.001,-0.047,0.011,0.214,0.18,-1.029,goal_sequence,4,target,0.15000000596046448,0.0,0.019999999552965164,0.266131552222608,target_1,0.15000000596046448,0.10000000149011612,0.019999999552965164,0.28987239163832357,target_2,-0.10000000149011612,0.0,0.019999999552965164,0.08261961064710333,target_3,-0.10000000149011612,0.10000000149011612,0.019999999552965164,0.14151325170875656,False,97
1,99,PICK_AND_PLACE,0.069,0.017,-0.738,-1.0,-0.113,-0.001,0.073,-0.327,-0.002,-0.812,0.038,AGARRADA,-0.11,-0.008,0.059,target_2,2,-0.1,0.0,0.02,0.016,0.0412,-0.0412,False,False,0,box,0.0,0.02,0.3,0.1,box,1.0,0.04,0.04,0.04,1.1,0.7,0.4,-0.3,ee,False,-0.6,0.0,0.05,script_1|reach_only|left_right,0.03,0.32,-0.03,-2.42,0.02,2.72,0.77,0.0,1.84,0.02,0.25,0.02,0.09,0.01,-0.002,0.018,0.011,-0.347,0.182,-0.817,goal_sequence,4,target,0.15000000596046448,0.0,0.019999999552965164,0.2630304224501612,target_1,0.15000000596046448,0.10000000149011612,0.019999999552965164,0.2842270280184053,target_2,-0.10000000149011612,0.0,0.019999999552965164,0.04104875156525953,target_3,-0.10000000149011612,0.10000000149011612,0.019999999552965164,0.11526057577043193,False,98
1,100,PICK_AND_PLACE,0.061,0.006,-0.194,-1.0,-0.118,-0.001,0.052,-0.078,-0.0,-0.225,0.038,AGARRADA,-0.115,-0.001,0.039,target_2,2,-0.1,0.0,0.02,0.0134,0.0244,-0.0244,False,False,0,box,0.0,0.02,0.3,0.1,box,1.0,0.04,0.04,0.04,1.1,0.7,0.4,-0.3,ee,False,-0.6,0.0,0.05,script_1|reach_only|left_right,0.03,0.37,-0.02,-2.42,0.02,2.76,0.77,-0.01,0.52,0.02,0.01,0.02,0.29,-0.01,-0.001,0.028,0.01,-0.081,0.183,-0.225,goal_sequence,4,target,0.15000000596046448,0.0,0.019999999552965164,0.26568214688991343,target_1,0.15000000596046448,0.10000000149011612,0.019999999552965164,0.284230546347568,target_2,-0.10000000149011612,0.0,0.019999999552965164,0.024228082307187312,target_3,-0.10000000149011612,0.10000000149011612,0.019999999552965164,0.10386048465748318,False,99
1,101,PICK_AND_PLACE,0.052,0.003,-0.064,-1.0,-0.115,-0.001,0.05,0.023,0.001,-0.012,0.038,AGARRADA,-0.112,0.006,0.038,target_2,2,-0.1,0.0,0.02,0.0149,0.0219,-0.0219,False,False,0,box,0.0,0.02,0.3,0.1,box,1.0,0.04,0.04,0.04,1.1,0.7,0.4,-0.3,ee,False,-0.6,0.0,0.05,script_1|reach_only|left_right,0.02,0.37,-0.02,-2.43,0.02,2.8,0.77,-0.01,0.05,0.01,-0.05,0.02,0.3,-0.01,-0.001,0.002,0.01,0.026,0.184,-0.011,goal_sequence,4,target,0.15000000596046448,0.0,0.019999999552965164,0.26268613046633554,target_1,0.15000000596046448,0.10000000149011612,0.019999999552965164,0.2789336900044857,target_2,-0.10000000149011612,0.0,0.019999999552965164,0.022449943882568386,target_3,-0.10000000149011612,0.10000000149011612,0.019999999552965164,0.09645724576449559,False,100
1,102,PICK_AND_PLACE,0.189,0.011,0.982,1.0,-0.122,-0.001,0.06,0.301,0.008,0.715,0.075,ABERTA,-0.11,0.014,0.029,target_2,2,-0.1,0.0,0.02,0.0366,0.0194,-0.0194,False,False,0,box,0.0,0.02,0.3,0.1,box,1.0,0.04,0.04,0.04,1.1,0.7,0.4,-0.3,ee,False,-0.6,0.0,0.05,script_1|reach_only|left_right,0.03,0.34,-0.03,-2.42,0.02,2.7,0.77,0.02,-1.57,-0.03,0.08,-0.05,-0.77,0.04,-0.001,-0.006,0.01,0.026,0.183,-0.403,goal_sequence,4,target,0.15000000596046448,0.0,0.019999999552965164,0.2605321536921848,target_1,0.15000000596046448,0.10000000149011612,0.019999999552965164,0.2740018309497004,target_2,-0.10000000149011612,0.0,0.019999999552965164,0.019416487278709996,target_3,-0.10000000149011612,0.10000000149011612,0.019999999552965164,0.0870459662163864,False,101
1,103,PICK_AND_PLACE,0.306,0.015,0.952,1.0,-0.109,-0.001,0.097,0.241,0.008,0.594,0.079,ABERTA,-0.11,0.017,0.02,target_2,2,-0.1,0.0,0.02,0.079,0.0197,-0.0197,False,False,0,box,0.0,0.02,0.3,0.1,box,1.0,0.04,0.04,0.04,1.1,0.7,0.4,-0.3,ee,False,-0.6,0.0,0.05,script_1|reach_only|left_right,0.03,0.26,-0.03,-2.42,0.02,2.67,0.77,0.01,-1.26,-0.01,-0.0,-0.02,-0.26,0.02,-0.0,-0.004,0.01,0.003,-0.0,0.004,goal_sequence,4,target,0.15000000596046448,0.0,0.019999999552965164,0.2605551824459486,target_1,0.15000000596046448,0.10000000149011612,0.019999999552965164,0.27292673622567803,target_2,-0.10000000149011612,0.0,0.019999999552965164,0.019723082167797206,target_3,-0.10000000149011612,0.10000000149011612,0.019999999552965164,0.0836002405352817,False,102
1,104,PICK_AND_PLACE,0.263,0.018,0.965,1.0,-0.1,-0.0,0.131,0.239,0.009,0.691,0.08,ABERTA,-0.11,0.017,0.02,target_2,2,-0.1,0.0,0.02,0.1132,0.0196,-0.0196,False,False,0,box,0.0,0.02,0.3,0.1,box,1.0,0.04,0.04,0.04,1.1,0.7,0.4,-0.3,ee,False,-0.6,0.0,0.05,script_1|reach_only|left_right,0.03,0.19,-0.03,-2.39,0.01,2.57,0.78,0.01,-1.32,-0.01,0.25,-0.04,-0.71,0.04,0.0,-0.001,0.01,0.001,-0.0,0.001,goal_sequence,4,target,0.15000000596046448,0.0,0.019999999552965164,0.2605551824459486,target_1,0.15000000596046448,0.10000000149011612,0.019999999552965164,0.27292673622567803,target_2,-0.10000000149011612,0.0,0.019999999552965164,0.019723082167797206,target_3,-0.10000000149011612,0.10000000149011612,0.019999999552965164,0.0836002405352817,False,103
1,105,PICK_AND_PLACE,-0.027,0.014,-1.0,1.0,-0.082,0.001,0.135,-0.199,-0.0,-0.835,0.08,ABERTA,-0.11,0.017,0.02,target_3,3,-0.1,0.1,0.02,0.1195,0.0836,-0.0836,False,False,0,box,0.0,0.02,0.3,0.1,box,1.0,0.04,0.04,0.04,1.1,0.7,0.4,-0.3,ee,False,-0.6,0.0,0.05,script_1|reach_only|left_right,0.03,0.21,-0.03,-2.4,0.02,2.69,0.78,-0.01,1.74,0.03,-0.07,0.05,0.9,-0.02,0.0,-0.0,0.01,0.0,0.0,0.0,goal_sequence,4,target,0.15000000596046448,0.0,0.019999999552965164,0.2605551824459486,target_1,0.15000000596046448,0.10000000149011612,0.019999999552965164,0.27292673622567803,target_2,-0.10000000149011612,0.0,0.019999999552965164,0.019723082167797206,target_3,-0.10000000149011612,0.10000000149011612,0.019999999552965164,0.0836002405352817,True,104
1,106,PICK_AND_PLACE,-0.786,0.444,-0.431,1.0,-0.118,0.018,0.108,-0.282,0.247,-0.113,0.08,ABERTA,-0.11,0.017,0.02,target_3,3,-0.1,0.1,0.02,0.0881,0.0836,-0.0836,False,False,0,box,0.0,0.02,0.3,0.1,box,1.0,0.04,0.04,0.04,1.1,0.7,0.4,-0.3,ee,False,-0.6,0.0,0.05,script_1|reach_only|left_right,0.05,0.21,-0.01,-2.46,0.01,2.66,0.82,0.44,-0.16,0.09,-0.52,-0.06,-0.19,0.35,0.0,-0.0,0.01,0.0,0.0,0.0,goal_sequence,4,target,0.15000000596046448,0.0,0.019999999552965164,0.2605551824459486,target_1,0.15000000596046448,0.10000000149011612,0.019999999552965164,0.27292673622567803,target_2,-0.10000000149011612,0.0,0.019999999552965164,0.019723082167797206,target_3,-0.10000000149011612,0.10000000149011612,0.019999999552965164,0.0836002405352817,False,105
1,107,PICK_AND_PLACE,0.55,-0.067,0.832,1.0,-0.112,0.015,0.123,0.847,-0.027,0.931,0.08,ABERTA,-0.11,0.017,0.02,target_3,3,-0.1,0.1,0.02,0.1026,0.0836,-0.0836,False,False,0,box,0.0,0.02,0.3,0.1,box,1.0,0.04,0.04,0.04,1.1,0.7,0.4,-0.3,ee,False,-0.6,0.0,0.05,script_1|reach_only|left_right,0.05,0.2,-0.02,-2.4,0.01,2.56,0.81,-0.09,-0.85,-0.03,1.67,-0.01,-0.8,-0.07,0.0,-0.0,0.01,0.0,0.0,0.0,goal_sequence,4,target,0.15000000596046448,0.0,0.019999999552965164,0.2605551824459486,target_1,0.15000000596046448,0.10000000149011612,0.019999999552965164,0.27292673622567803,target_2,-0.10000000149011612,0.0,0.019999999552965164,0.019723082167797206,target_3,-0.10000000149011612,0.10000000149011612,0.019999999552965164,0.0836002405352817,False,106
1,108,PICK_AND_PLACE,0.021,0.018,-0.856,1.0,-0.09,0.017,0.13,-0.296,-0.005,-0.792,0.08,ABERTA,-0.11,0.017,0.02,target_3,3,-0.1,0.1,0.02,0.1116,0.0836,-0.0836,False,False,0,box,0.0,0.02,0.3,0.1,box,1.0,0.04,0.04,0.04,1.1,0.7,0.4,-0.3,ee,False,-0.6,0.0,0.05,script_1|reach_only|left_right,0.05,0.2,-0.02,-2.42,0.01,2.7,0.81,0.0,1.45,0.02,-0.45,0.02,1.09,-0.01,0.0,-0.0,0.01,0.0,0.0,0.0,goal_sequence,4,target,0.15000000596046448,0.0,0.019999999552965164,0.2605551824459486,target_1,0.15000000596046448,0.10000000149011612,0.019999999552965164,0.27292673622567803,target_2,-0.10000000149011612,0.0,0.019999999552965164,0.019723082167797206,target_3,-0.10000000149011612,0.10000000149011612,0.019999999552965164,0.0836002405352817,False,107
1,109,PICK_AND_PLACE,-0.197,0.001,-0.98,1.0,-0.103,0.017,0.084,-0.437,-0.018,-1.01,0.08,ABERTA,-0.11,0.017,0.02,target_3,3,-0.1,0.1,0.02,0.0643,0.0836,-0.0836,False,False,0,box,0.0,0.02,0.3,0.1,box,1.0,0.04,0.04,0.04,1.1,0.7,0.4,-0.3,ee,False,-0.6,0.0,0.05,script_1|reach_only|left_right,0.05,0.31,-0.02,-2.4,0.01,2.71,0.81,0.0,2.14,0.01,0.16,0.0,0.07,0.01,0.0,-0.0,0.01,0.0,0.0,0.0,goal_sequence,4,target,0.15000000596046448,0.0,0.019999999552965164,0.2605551824459486,target_1,0.15000000596046448,0.10000000149011612,0.019999999552965164,0.27292673622567803,target_2,-0.10000000149011612,0.0,0.019999999552965164,0.019723082167797206,target_3,-0.10000000149011612,0.10000000149011612,0.019999999552965164,0.0836002405352817,False,108
1,110,PICK_AND_PLACE,-0.038,0.001,-0.293,1.0,-0.111,0.017,0.059,-0.095,-0.003,-0.23,0.08,ABERTA,-0.11,0.017,0.02,target_3,3,-0.1,0.1,0.02,0.0393,0.0836,-0.0836,False,False,0,box,0.0,0.02,0.3,0.1,box,1.0,0.04,0.04,0.04,1.1,0.7,0.4,-0.3,ee,False,-0.6,0.0,0.05,script_1|reach_only|left_right,0.05,0.36,-0.01,-2.41,0.01,2.74,0.81,-0.0,0.5,0.01,-0.01,0.01,0.22,-0.0,-0.0,-0.0,0.01,0.0,0.0,0.0,goal_sequence,4,target,0.15000000596046448,0.0,0.019999999552965164,0.2605551824459486,target_1,0.15000000596046448,0.10000000149011612,0.019999999552965164,0.27292673622567803,target_2,-0.10000000149011612,0.0,0.019999999552965164,0.019723082167797206,target_3,-0.10000000149011612,0.10000000149011612,0.019999999552965164,0.0836002405352817,False,109
1,111,PICK_AND_PLACE,0.005,0.001,-0.086,1.0,-0.111,0.017,0.056,0.007,0.001,-0.022,0.08,ABERTA,-0.11,0.017,0.02,target_3,3,-0.1,0.1,0.02,0.0359,0.0836,-0.0836,False,False,0,box,0.0,0.02,0.3,0.1,box,1.0,0.04,0.04,0.04,1.1,0.7,0.4,-0.3,ee,False,-0.6,0.0,0.05,script_1|reach_only|left_right,0.05,0.37,-0.01,-2.42,0.01,2.78,0.81,-0.01,0.05,0.01,-0.08,0.01,0.31,-0.01,-0.0,-0.0,0.01,0.0,0.0,0.0,goal_sequence,4,target,0.15000000596046448,0.0,0.019999999552965164,0.2605551824459486,target_1,0.15000000596046448,0.10000000149011612,0.019999999552965164,0.27292673622567803,target_2,-0.10000000149011612,0.0,0.019999999552965164,0.019723082167797206,target_3,-0.10000000149011612,0.10000000149011612,0.019999999552965164,0.0836002405352817,False,110
1,112,PICK_AND_PLACE,0.002,0.001,-0.067,1.0,-0.111,0.017,0.053,-0.0,0.0,-0.022,0.08,ABERTA,-0.11,0.017,0.02,target_3,3,-0.1,0.1,0.02,0.0332,0.0836,-0.0836,False,False,0,box,0.0,0.02,0.3,0.1,box,1.0,0.04,0.04,0.04,1.1,0.7,0.4,-0.3,ee,False,-0.6,0.0,0.05,script_1|reach_only|left_right,0.05,0.37,-0.01,-2.42,0.01,2.79,0.81,-0.0,0.06,0.0,-0.0,0.0,0.08,-0.0,-0.0,-0.0,0.01,0.0,0.0,0.0,goal_sequence,4,target,0.15000000596046448,0.0,0.019999999552965164,0.2605551824459486,target_1,0.15000000596046448,0.10000000149011612,0.019999999552965164,0.27292673622567803,target_2,-0.10000000149011612,0.0,0.019999999552965164,0.019723082167797206,target_3,-0.10000000149011612,0.10000000149011612,0.019999999552965164,0.0836002405352817,False,111
1,113,PICK_AND_PLACE,0.002,0.001,-0.06,1.0,-0.111,0.017,0.051,-0.001,0.0,-0.019,0.08,ABERTA,-0.11,0.017,0.02,target_3,3,-0.1,0.1,0.02,0.0308,0.0836,-0.0836,False,False,0,box,0.0,0.02,0.3,0.1,box,1.0,0.04,0.04,0.04,1.1,0.7,0.4,-0.3,ee,False,-0.6,0.0,0.05,script_1|reach_only|left_right,0.05,0.38,-0.01,-2.42,0.01,2.8,0.81,-0.0,0.05,0.0,0.01,0.0,0.05,-0.0,-0.0,-0.0,0.01,0.0,0.0,0.0,goal_sequence,4,target,0.15000000596046448,0.0,0.019999999552965164,0.2605551824459486,target_1,0.15000000596046448,0.10000000149011612,0.019999999552965164,0.27292673622567803,target_2,-0.10000000149011612,0.0,0.019999999552965164,0.019723082167797206,target_3,-0.10000000149011612,0.10000000149011612,0.019999999552965164,0.0836002405352817,False,112
1,114,PICK_AND_PLACE,0.002,0.001,-0.06,1.0,-0.111,0.017,0.048,-0.001,0.0,-0.02,0.08,ABERTA,-0.11,0.017,0.02,target_3,3,-0.1,0.1,0.02,0.0284,0.0836,-0.0836,False,False,0,box,0.0,0.02,0.3,0.1,box,1.0,0.04,0.04,0.04,1.1,0.7,0.4,-0.3,ee,False,-0.6,0.0,0.05,script_1|reach_only|left_right,0.05,0.39,-0.01,-2.41,0.01,2.8,0.81,-0.0,0.05,0.0,0.01,0.0,0.04,-0.0,-0.0,-0.0,0.01,0.0,0.0,0.0,goal_sequence,4,target,0.15000000596046448,0.0,0.019999999552965164,0.2605551824459486,target_1,0.15000000596046448,0.10000000149011612,0.019999999552965164,0.27292673622567803,target_2,-0.10000000149011612,0.0,0.019999999552965164,0.019723082167797206,target_3,-0.10000000149011612,0.10000000149011612,0.019999999552965164,0.0836002405352817,False,113
1,115,PICK_AND_PLACE,0.002,0.001,-0.06,1.0,-0.111,0.017,0.046,-0.001,0.0,-0.02,0.08,ABERTA,-0.11,0.017,0.02,target_3,3,-0.1,0.1,0.02,0.026,0.0836,-0.0836,False,False,0,box,0.0,0.02,0.3,0.1,box,1.0,0.04,0.04,0.04,1.1,0.7,0.4,-0.3,ee,False,-0.6,0.0,0.05,script_1|reach_only|left_right,0.05,0.39,-0.01,-2.41,0.01,2.81,0.81,-0.0,0.05,0.0,0.01,0.0,0.04,-0.0,-0.0,0.0,0.01,0.0,0.0,-0.0,goal_sequence,4,target,0.15000000596046448,0.0,0.019999999552965164,0.2605551824459486,target_1,0.15000000596046448,0.10000000149011612,0.019999999552965164,0.27292673622567803,target_2,-0.10000000149011612,0.0,0.019999999552965164,0.019723082167797206,target_3,-0.10000000149011612,0.10000000149011612,0.019999999552965164,0.0836002405352817,False,114
1,116,PICK_AND_PLACE,0.003,0.001,-0.06,1.0,-0.111,0.017,0.044,-0.0,0.0,-0.02,0.08,ABERTA,-0.11,0.017,0.02,target_3,3,-0.1,0.1,0.02,0.0236,0.0836,-0.0836,False,False,0,box,0.0,0.02,0.3,0.1,box,1.0,0.04,0.04,0.04,1.1,0.7,0.4,-0.3,ee,False,-0.6,0.0,0.05,script_1|reach_only|left_right,0.05,0.4,-0.01,-2.41,0.01,2.81,0.81,-0.0,0.05,0.0,0.01,0.0,0.04,-0.0,-0.0,0.0,0.01,0.0,0.0,-0.0,goal_sequence,4,target,0.15000000596046448,0.0,0.019999999552965164,0.2605551824459486,target_1,0.15000000596046448,0.10000000149011612,0.019999999552965164,0.27292673622567803,target_2,-0.10000000149011612,0.0,0.019999999552965164,0.019723082167797206,target_3,-0.10000000149011612,0.10000000149011612,0.019999999552965164,0.0836002405352817,False,115
1,117,PICK_AND_PLACE,0.003,0.001,-0.06,1.0,-0.11,0.017,0.041,-0.0,0.0,-0.02,0.08,ABERTA,-0.11,0.017,0.02,target_3,3,-0.1,0.1,0.02,0.0212,0.0836,-0.0836,False,False,0,box,0.0,0.02,0.3,0.1,box,1.0,0.04,0.04,0.04,1.1,0.7,0.4,-0.3,ee,False,-0.6,0.0,0.05,script_1|reach_only|left_right,0.05,0.41,-0.01,-2.41,0.01,2.82,0.81,-0.0,0.05,0.0,0.01,0.0,0.04,-0.0,-0.0,0.0,0.01,0.0,-0.0,0.0,goal_sequence,4,target,0.15000000596046448,0.0,0.019999999552965164,0.2605551824459486,target_1,0.15000000596046448,0.10000000149011612,0.019999999552965164,0.27292673622567803,target_2,-0.10000000149011612,0.0,0.019999999552965164,0.019723082167797206,target_3,-0.10000000149011612,0.10000000149011612,0.019999999552965164,0.0836002405352817,False,116
1,118,PICK_AND_PLACE,0.004,0.0,-0.06,1.0,-0.11,0.017,0.039,-0.0,0.0,-0.019,0.08,ABERTA,-0.11,0.017,0.02,target_3,3,-0.1,0.1,0.02,0.0188,0.0836,-0.0836,False,False,0,box,0.0,0.02,0.3,0.1,box,1.0,0.04,0.04,0.04,1.1,0.7,0.4,-0.3,ee,False,-0.6,0.0,0.05,script_1|reach_only|left_right,0.05,0.41,-0.01,-2.41,0.01,2.82,0.81,-0.0,0.05,0.0,0.01,0.0,0.04,-0.0,-0.0,-0.0,0.01,0.0,0.0,0.0,goal_sequence,4,target,0.15000000596046448,0.0,0.019999999552965164,0.2605551824459486,target_1,0.15000000596046448,0.10000000149011612,0.019999999552965164,0.27292673622567803,target_2,-0.10000000149011612,0.0,0.019999999552965164,0.019723082167797206,target_3,-0.10000000149011612,0.10000000149011612,0.019999999552965164,0.0836002405352817,False,117
1,119,PICK_AND_PLACE,0.004,0.0,-0.06,1.0,-0.11,0.017,0.036,-0.0,0.0,-0.019,0.08,ABERTA,-0.11,0.017,0.02,target_3,3,-0.1,0.1,0.02,0.0164,0.0836,-0.0836,False,False,0,box,0.0,0.02,0.3,0.1,box,1.0,0.04,0.04,0.04,1.1,0.7,0.4,-0.3,ee,False,-0.6,0.0,0.05,script_1|reach_only|left_right,0.05,0.42,-0.01,-2.41,0.02,2.83,0.81,-0.0,0.06,0.0,0.01,0.0,0.04,-0.0,-0.0,-0.0,0.01,0.0,0.0,0.0,goal_sequence,4,target,0.15000000596046448,0.0,0.019999999552965164,0.2605551824459486,target_1,0.15000000596046448,0.10000000149011612,0.019999999552965164,0.27292673622567803,target_2,-0.10000000149011612,0.0,0.019999999552965164,0.019723082167797206,target_3,-0.10000000149011612,0.10000000149011612,0.019999999552965164,0.0836002405352817,False,118
1,120,PICK_AND_PLACE,0.005,0.0,-0.06,1.0,-0.11,0.017,0.034,0.0,0.0,-0.019,0.08,ABERTA,-0.11,0.017,0.02,target_3,3,-0.1,0.1,0.02,0.014,0.0836,-0.0836,False,False,0,box,0.0,0.02,0.3,0.1,box,1.0,0.04,0.04,0.04,1.1,0.7,0.4,-0.3,ee,False,-0.6,0.0,0.05,script_1|reach_only|left_right,0.05,0.43,-0.01,-2.4,0.02,2.83,0.81,-0.0,0.06,0.0,0.02,0.0,0.04,-0.0,-0.0,0.0,0.01,0.0,-0.0,-0.0,goal_sequence,4,target,0.15000000596046448,0.0,0.019999999552965164,0.2605551824459486,target_1,0.15000000596046448,0.10000000149011612,0.019999999552965164,0.27292673622567803,target_2,-0.10000000149011612,0.0,0.019999999552965164,0.019723082167797206,target_3,-0.10000000149011612,0.10000000149011612,0.019999999552965164,0.0836002405352817,False,119
1,121,PICK_AND_PLACE,0.006,0.0,-0.06,-1.0,-0.11,0.017,0.032,0.004,0.0,-0.012,0.037,AGARRADA,-0.11,0.017,0.02,target_3,3,-0.1,0.1,0.02,0.0117,0.0836,-0.0836,False,False,0,box,0.0,0.02,0.3,0.1,box,1.0,0.04,0.04,0.04,1.1,0.7,0.4,-0.3,ee,False,-0.6,0.0,0.05,script_1|reach_only|left_right,0.05,0.43,-0.01,-2.4,0.02,2.84,0.81,-0.0,0.04,0.0,0.02,0.0,0.03,-0.01,0.0,-0.001,0.01,0.001,-0.001,0.0,goal_sequence,4,target,0.15000000596046448,0.0,0.019999999552965164,0.2605551824459486,target_1,0.15000000596046448,0.10000000149011612,0.019999999552965164,0.27292673622567803,target_2,-0.10000000149011612,0.0,0.019999999552965164,0.019723082167797206,target_3,-0.10000000149011612,0.10000000149011612,0.019999999552965164,0.0836002405352817,False,120
1,122,PICK_AND_PLACE,-0.002,-0.0,1.0,-1.0,-0.125,0.016,0.043,0.171,0.008,0.61,0.037,AGARRADA,-0.124,0.016,0.032,target_3,3,-0.1,0.1,0.02,0.0103,0.0885,-0.0885,False,False,0,box,0.0,0.02,0.3,0.1,box,1.0,0.04,0.04,0.04,1.1,0.7,0.4,-0.3,ee,False,-0.6,0.0,0.05,script_1|reach_only|left_right,0.05,0.38,-0.01,-2.42,0.01,2.74,0.81,0.01,-1.52,-0.02,-0.21,-0.03,-0.72,0.02,0.002,0.04,-0.003,0.177,-0.03,0.611,goal_sequence,4,target,0.15000000596046448,0.0,0.019999999552965164,0.2747289633021306,target_1,0.15000000596046448,0.10000000149011612,0.019999999552965164,0.2868379394839583,target_2,-0.10000000149011612,0.0,0.019999999552965164,0.031240997730598564,target_3,-0.10000000149011612,0.10000000149011612,0.019999999552965164,0.08818163181492376,False,121
1,123,PICK_AND_PLACE,0.158,0.01,0.987,-1.0,-0.119,0.016,0.076,0.305,0.015,0.783,0.037,AGARRADA,-0.117,0.015,0.066,target_3,3,-0.1,0.1,0.02,0.0101,0.0988,-0.0988,False,False,0,box,0.0,0.02,0.3,0.1,box,1.0,0.04,0.04,0.04,1.1,0.7,0.4,-0.3,ee,False,-0.6,0.0,0.05,script_1|reach_only|left_right,0.05,0.29,-0.02,-2.44,0.01,2.71,0.81,0.01,-1.8,-0.01,-0.2,-0.01,-0.21,0.01,0.002,0.001,0.004,0.328,-0.028,0.786,goal_sequence,4,target,0.15000000596046448,0.0,0.019999999552965164,0.2713484903661992,target_1,0.15000000596046448,0.10000000149011612,0.019999999552965164,0.2839542277856328,target_2,-0.10000000149011612,0.0,0.019999999552965164,0.051283525526851795,target_3,-0.10000000149011612,0.10000000149011612,0.019999999552965164,0.09813256464488739,False,122
1,124,PICK_AND_PLACE,0.151,0.011,0.988,-1.0,-0.113,0.017,0.114,0.211,0.011,0.681,0.037,AGARRADA,-0.111,0.013,0.104,target_3,3,-0.1,0.1,0.02,0.0107,0.1209,-0.1209,False,False,0,box,0.0,0.02,0.3,0.1,box,1.0,0.04,0.04,0.04,1.1,0.7,0.4,-0.3,ee,False,-0.6,0.0,0.05,script_1|reach_only|left_right,0.05,0.21,-0.02,-2.44,0.01,2.64,0.81,0.01,-1.48,-0.01,0.03,-0.02,-0.61,0.02,0.002,-0.016,0.004,0.22,-0.027,0.683,goal_sequence,4,target,0.15000000596046448,0.0,0.019999999552965164,0.2744922643472204,target_1,0.15000000596046448,0.10000000149011612,0.019999999552965164,0.2876560505981832,target_2,-0.10000000149011612,0.0,0.019999999552965164,0.08570880959574284,target_3,-0.10000000149011612,0.10000000149011612,0.019999999552965164,0.12143311040074493,False,123
1,125,PICK_AND_PLACE,0.124,0.014,0.992,-1.0,-0.109,0.017,0.149,0.187,0.012,0.731,0.038,AGARRADA,-0.107,0.012,0.14,target_3,3,-0.1,0.1,0.02,0.0111,0.1483,-0.1483,False,False,0,box,0.0,0.02,0.3,0.1,box,1.0,0.04,0.04,0.04,1.1,0.7,0.4,-0.3,ee,False,-0.6,0.0,0.05,script_1|reach_only|left_right,0.05,0.13,-0.02,-2.42,0.0,2.54,0.82,0.01,-1.51,-0.01,0.15,-0.02,-0.75,0.02,0.002,-0.017,0.006,0.196,-0.026,0.732,goal_sequence,4,target,0.15000000596046448,0.0,0.019999999552965164,0.28388906842456463,target_1,0.15000000596046448,0.10000000149011612,0.019999999552965164,0.2969730685318579,target_2,-0.10000000149011612,0.0,0.019999999552965164,0.12080149041475748,target_3,-0.10000000149011612,0.10000000149011612,0.019999999552965164,0.1489731531138654,False,124
1,126,PICK_AND_PLACE,-0.1,-0.013,-0.995,-1.0,-0.094,0.018,0.156,-0.121,-0.009,-0.604,0.038,AGARRADA,-0.092,0.011,0.143,target_3,3,-0.1,0.1,0.02,0.0143,0.1518,-0.1518,False,False,0,box,0.0,0.02,0.3,0.1,box,1.0,0.04,0.04,0.04,1.1,0.7,0.4,-0.3,ee,False,-0.6,0.0,0.05,script_1|reach_only|left_right,0.05,0.13,-0.02,-2.44,0.01,2.66,0.81,-0.01,1.25,0.01,-0.19,0.02,0.94,-0.02,0.005,-0.089,-0.007,-0.125,-0.023,-0.604,goal_sequence,4,target,0.15000000596046448,0.0,0.019999999552965164,0.2716873257898414,target_1,0.15000000596046448,0.10000000149011612,0.019999999552965164,0.28568164669799156,target_2,-0.10000000149011612,0.0,0.019999999552965164,0.1237497480151472,target_3,-0.10000000149011612,0.10000000149011612,0.019999999552965164,0.15203289249058277,False,125
1,127,PICK_AND_PLACE,-0.069,0.952,-0.298,-1.0,-0.101,0.045,0.136,-0.139,0.963,-0.197,0.039,AGARRADA,-0.101,0.031,0.124,target_3,3,-0.1,0.1,0.02,0.0188,0.1248,-0.1248,False,False,0,box,0.0,0.02,0.3,0.1,box,1.0,0.04,0.04,0.04,1.1,0.7,0.4,-0.3,ee,False,-0.6,0.0,0.05,script_1|reach_only|left_right,0.08,0.18,0.01,-2.4,-0.0,2.58,0.9,1.64,0.57,0.28,0.4,-0.07,-0.63,0.68,0.001,-0.002,-0.019,-0.125,1.013,-0.196,goal_sequence,4,target,0.15000000596046448,0.0,0.019999999552965164,0.2734556693234507,target_1,0.15000000596046448,0.10000000149011612,0.019999999552965164,0.2803176828007332,target_2,-0.10000000149011612,0.0,0.019999999552965164,0.1085264948756893,target_3,-0.10000000149011612,0.10000000149011612,0.019999999552965164,0.12481185959530866,False,126
1,128,PICK_AND_PLACE,0.024,0.994,-0.106,-1.0,-0.101,0.088,0.132,-0.02,0.395,-0.027,0.038,AGARRADA,-0.101,0.085,0.12,target_3,3,-0.1,0.1,0.02,0.0122,0.1012,-0.1012,False,False,0,box,0.0,0.02,0.3,0.1,box,1.0,0.04,0.04,0.04,1.1,0.7,0.4,-0.3,ee,False,-0.6,0.0,0.05,script_1|reach_only|left_right,0.13,0.21,0.04,-2.38,-0.01,2.58,0.97,0.5,0.17,0.26,0.15,-0.09,0.04,0.54,0.001,-0.003,-0.0,-0.018,1.414,-0.026,goal_sequence,4,target,0.15000000596046448,0.0,0.019999999552965164,0.28324195148593395,target_1,0.15000000596046448,0.10000000149011612,0.019999999552965164,0.2706030360625387,target_2,-0.10000000149011612,0.0,0.019999999552965164,0.13124785745461423,target_3,-0.10000000149011612,0.10000000149011612,0.019999999552965164,0.10112368729002232,False,127
1,129,PICK_AND_PLACE,0.112,0.984,-0.139,-1.0,-0.098,0.126,0.127,-0.054,0.653,-0.053,0.038,AGARRADA,-0.097,0.14,0.115,target_3,3,-0.1,0.1,0.02,0.018,0.1031,-0.1031,False,False,0,box,0.0,0.02,0.3,0.1,box,1.0,0.04,0.04,0.04,1.1,0.7,0.4,-0.3,ee,False,-0.6,0.0,0.05,script_1|reach_only|left_right,0.18,0.24,0.06,-2.34,-0.03,2.58,1.06,1.05,0.37,0.19,0.37,-0.1,-0.01,0.65,0.001,-0.003,-0.004,-0.06,1.093,-0.053,goal_sequence,4,target,0.15000000596046448,0.0,0.019999999552965164,0.29938938362842143,target_1,0.15000000596046448,0.10000000149011612,0.019999999552965164,0.2676452930843298,target_2,-0.10000000149011612,0.0,0.019999999552965164,0.16921583877958152,target_3,-0.10000000149011612,0.10000000149011612,0.019999999552965164,0.10312128768914804,False,128
1,130,PICK_AND_PLACE,-0.021,-0.261,-0.965,-1.0,-0.096,0.131,0.101,-0.3,-0.583,-1.204,0.039,AGARRADA,-0.096,0.149,0.087,target_3,3,-0.1,0.1,0.02,0.0229,0.0831,-0.0831,False,False,0,box,0.0,0.02,0.3,0.1,box,1.0,0.04,0.04,0.04,1.1,0.7,0.4,-0.3,ee,False,-0.6,0.0,0.05,script_1|reach_only|left_right,0.2,0.31,0.05,-2.35,-0.04,2.68,1.04,-0.85,2.4,-0.15,-0.06,-0.08,0.74,-0.15,0.004,-0.025,0.024,-0.307,-0.533,-1.211,goal_sequence,4,target,0.15000000596046448,0.0,0.019999999552965164,0.2953066253785228,target_1,0.15000000596046448,0.10000000149011612,0.019999999552965164,0.2596266605077758,target_2,-0.10000000149011612,0.0,0.019999999552965164,0.16341970527394667,target_3,-0.10000000149011612,0.10000000149011612,0.019999999552965164,0.08310234609078267,False,129
1,131,PICK_AND_PLACE,-0.03,-0.238,-0.547,-1.0,-0.107,0.118,0.061,-0.306,-0.127,-0.701,0.038,AGARRADA,-0.107,0.128,0.048,target_3,3,-0.1,0.1,0.02,0.0161,0.0401,-0.0401,False,False,0,box,0.0,0.02,0.3,0.1,box,1.0,0.04,0.04,0.04,1.1,0.7,0.4,-0.3,ee,False,-0.6,0.0,0.05,script_1|reach_only|left_right,0.19,0.39,0.04,-2.34,-0.03,2.7,1.04,-0.06,1.44,-0.07,0.06,0.02,0.17,0.03,-0.005,0.028,0.003,-0.318,-0.528,-0.701,goal_sequence,4,target,0.15000000596046448,0.0,0.019999999552965164,0.28847357433344345,target_1,0.15000000596046448,0.10000000149011612,0.019999999552965164,0.2600326960312226,target_2,-0.10000000149011612,0.0,0.019999999552965164,0.1312135663876732,target_3,-0.10000000149011612,0.10000000149011612,0.019999999552965164,0.04021193754006175,False,130
1,132,PICK_AND_PLACE,0.025,-0.067,-0.114,-1.0,-0.112,0.114,0.044,-0.05,-0.031,-0.144,0.038,AGARRADA,-0.111,0.107,0.032,target_3,3,-0.1,0.1,0.02,0.0139,0.018,-0.018,False,False,0,box,0.0,0.02,0.3,0.1,box,1.0,0.04,0.04,0.04,1.1,0.7,0.4,-0.3,ee,False,-0.6,0.0,0.05,script_1|reach_only|left_right,0.19,0.42,0.04,-2.35,-0.04,2.75,1.04,-0.02,0.29,-0.03,-0.09,-0.02,0.36,-0.0,-0.004,0.025,0.0,-0.051,-0.52,-0.141,goal_sequence,4,target,0.15000000596046448,0.0,0.019999999552965164,0.2823366839822472,target_1,0.15000000596046448,0.10000000149011612,0.019999999552965164,0.2613694762232761,target_2,-0.10000000149011612,0.0,0.019999999552965164,0.1082312338373091,target_3,-0.10000000149011612,0.10000000149011612,0.019999999552965164,0.01772004393574295,False,131
1,133,PICK_AND_PLACE,0.133,-0.163,0.978,1.0,-0.123,0.105,0.049,0.2,-0.03,0.552,0.075,ABERTA,-0.113,0.087,0.02,target_3,3,-0.1,0.1,0.02,0.0352,0.0183,-0.0183,False,False,0,box,0.0,0.02,0.3,0.1,box,1.0,0.04,0.04,0.04,1.1,0.7,0.4,-0.3,ee,False,-0.6,0.0,0.05,script_1|reach_only|left_right,0.17,0.39,0.04,-2.37,-0.03,2.69,1.02,-0.13,-1.28,0.02,-0.13,0.06,-0.47,-0.15,0.029,0.01,0.01,-0.008,-0.067,0.095,goal_sequence,4,target,0.15000000596046448,0.0,0.019999999552965164,0.27701625066989183,target_1,0.15000000596046448,0.10000000149011612,0.019999999552965164,0.2633211027888714,target_2,-0.10000000149011612,0.0,0.019999999552965164,0.08796590226478089,target_3,-0.10000000149011612,0.10000000149011612,0.019999999552965164,0.018384776310850368,False,132
